X:1
T:Scherzo
T:Scherzo
T:F.Chopin, Op.31
C:F.Chopin, Op.31
%%score { ( 1 3 5 6 ) | ( 2 4 ) }
L:1/8
Q:3/4=100
M:3/4
K:Db
V:1 treble nm="Piano" snm="Pno."
V:3 treble 
V:5 treble 
V:6 treble 
V:2 bass 
V:4 bass 
V:1
"^Presto"!p! (B,4 (3=A,B,D | F2) z2 (3(=A,B,D | F2) z2 z2 | z6 |!ff! .B,2 z2 z2 | %5
!8va(!!>(! ([bg'b']6- | [bg'b']6!>)! |!f! [ec'e']3 [fc'f'] [gc'g']2 | %8
 .[fd'f']2)!8va)! z2!pp! (3(=A,B,D | F2) z2 (3(=A,B,D | F2) z2 z2 | z6 |!ff! ._A,2 z2 z2 | %13
!8va(!!>(! ([af'a']6- | [af'a']6!>)! |!f! [ec'e']3 [fc'f'] [gc'g']2 | .[fd'f']2)!8va)! z2 z2 | %17
 !>![=Af]4 z2 | !>![=A,F]4 z2 | z6 | z6 | z6 | z6 | z6 | z2 z2!pp! (3(=A,B,D | F2) z2 (3(=A,B,D | %26
 F2) z2 z2 | z6 |!ff! .B,2 z2 z2 |!>(!!8va(! ([bg'b']6- | [bg'b']3 [ec'e']!>)! [ec'e']2 | %31
!f! [ec'e']3 [fc'f'] [gc'g']2 | .[fd'f']2)!8va)! z2!pp! (3(=A,B,D | F2) z2 (3(=A,B,D | F2) z2 z2 | %35
 z6 |[K:bass]!ff! .C,2 z2 z2 |[K:treble]!>(!!8va(! ([c'a'c'']6- | [c'a'c'']6!>)! | %39
!f! [=g=e'=g']3 [ae'a'] [be'b']2 | .[af'a']2)!8va)! z2 z2 | !>![Acfa]4 z2 | !>![A,CFA]4 z2 | z6 | %44
 z6 | z6 | z6 | z6 |!ff!!8va(!!>(! (!>!f''6- | f''2!>)!!f! e''d''a'f'!8va)! | e'd'afed | %51
 A2) z2 z2 |!p! (cdefga |!p! __b) z z2 z2 |!p!!>(! (__ba=g_gf_f!>)! |!p! e) z z4 | %56
!ff![Q:3/4=100]!>(!!8va(! (f''6- | f''2!>)!!f! e''d''a'f'!8va)! | e'd'afed | A2) z2 z2 | %60
!pp! (!>!cdefga | __b) z z2 z2 | %62
[Q:3/4=98]"^poco ritenuto"!>(! (!>!__ba[Q:3/4=96]=g_g[Q:3/4=94]f_f!>)! | %63
[Q:3/4=90] e) z[Q:3/4=86] z2[Q:3/4=80] z2 |"^(a tempo)"[Q:3/4=88]!p!!>(! (f6- | f2 e3 d!>)! | d6 | %67
 !>!g6- | g4 f2 | f2 e2 d2 |!<(! b6)!<)! |!p!"_cresc." (b4 b2 |{/_G} b4 e2 | e2"^" Pf3 e | e6 | %75
 !>!a6- | a2 =g2 f2 | =g2 f3 e | c'6) | (c'4 c'2 |!f!!>(! c'6-!>)! | c'2 b3 a |!mf!!<(! a6 | %83
 d'6!<)! |!f!!>(! d'4 c'2 | c'2 b3 a!>)! |!mf! f'6) | (f'4 f'2 |!>(! f'6 | e'2 d'2 b2 | c'6 | %91
 b2 a2 f2 | b2 a2 g2 | Pg2 f3 =e!>)! |!mf![Q:3/4=84] !>!=e6 |[Q:3/4=80] f4) (!>!a2 | %96
[Q:3/4=88] !arpeggio!a6 |!>(! [cc']2 [Bb]3!>)! [Aa] |!<(! [Aa-]6 | [dad']6!<)! | %100
!mf!!>(! [dd']4 [cc']2 | [cac']3 [Bb] [Aa]2!>)! |!>(! [faf']6) | ([faf']4 [faf']2!>)! | %104
!>(! [faf']6 | [ege']2 [dgd']3 [Bgb]!>)! |!<(! [cac']6 | [Bgb]2 [Afa]2 [Bgb]2!<)! | %108
!f!"_cresc." [_cf_c']4 [Bfb]2 | [_cf_c']6- | [cfc']4 [Bfb]2 | %111
[Q:3/4=86] [_cf_c']2[Q:3/4=84] [Bfb]2[Q:3/4=82] [cfc']2 |[Q:3/4=80] !>![_cg_c']4 [Bgb]2) | %113
!ff![Q:3/4=84]!8va(! (!>![bg'b']6- |[Q:3/4=88] [bg'b']3!8va)! [=cg=c'] [cgc']2 | %115
 [cgc']3 [faf'] [ege']2 |[Q:3/4=100] .[dfd']2) z2 z2 | (!>!Fda!8va(!fd'b' | [c'a']2)!8va)! z2 z2 | %119
 (!>!Gca!8va(!gc'a' | [d'f']2)!8va)! z2 z2 | (!>!Fda!8va(!fd'b' | [c'a']2)!8va)! z2 z2 | %123
 (!>!Gca!8va(!gc'a' | [d'f']2)!8va)! z2 z2 | Fda!8va(!fd'a'!8va)! | d'fadFA | %127
 D[I:staff +1]F,A,D,F,,D, |[I:staff -1] z6 |!8va(! !>![d'd'']6!8va)! | z6 | z6 | %132
 z2 z2!p! (3(=A,B,D | F2) z2 (3(=A,B,D | F2) z2 z2 | z6 |!ff! .B,2 z2 z2 |!>(!!8va(! ([bg'b']6- | %138
 [bg'b']6!>)! |!f! [ec'e']3 [fc'f'] [gc'g']2 | .[fd'f']2)!8va)! z2!pp! (3(=A,B,D | %141
 F2) z2 (3(=A,B,D | F2) z2 z2 | z6 |!ff! ._A,2 z2 z2 |!>(!!8va(! ([af'a']6- | [af'a']6!>)! | %147
!f![Q:3/4=92] (5:3:5[ec'e']2 [=ec'=e']2 [fc'f']2 [ac'a']2 [gc'g']2 | %148
[Q:3/4=100] .[fd'f']2)!8va)! z2 z2 | !>![=Af]4 z2 | !>![=A,F]4 z2 | z6 | z6 | z6 | z6 | z6 | %156
 z2 z2!pp! (3(=A,B,D | F2) z2 (3(=A,B,D | F2) z2 z2 | z6 |!ff! .B,2 z2 z2 | %161
!>(!!8va(! ([bg'b']6-!>)! | [bg'b']3 [ec'e'] [ec'e']2 |!f! [ec'e']3 [fc'f'] [gc'g']2 | %164
 .[fd'f']2)!8va)! z2!pp! (3(=A,B,D | F2) z2 (3(=A,B,D | F2) z2 z2 | z6 |[K:bass]!ff! .C,2 z2 z2 | %169
[K:treble]!>(!!8va(! [c'a'c'']6- | [c'a'c'']6!>)! | %171
[Q:3/4=92] (4:3:4([d'=g'd'']2 [c'g'c'']2 [fc'f']2 [=gc'g']2 |[Q:3/4=100] .[ac'a']2)!8va)! z2 z2 | %173
 !>![Acfa]4 z2 | !>![A,CFA]4 z2 | z6 | z6 |[Q:3/4=76]!f![I:staff +1] F,,6 | %178
[Q:3/4=84]!mf!!<(!{=D,,_E,,} !trill(!TE,,6- | %179
[Q:3/4=80] !trill)!E,,6{=D,,E,,}!<)![Q:3/4=60][Q:3/4=30] | %180
[Q:3/4=100]!ff!!>(!!8va(![I:staff -1] (!>!f''6-!>)! | f''2!f! e''d''a'f'!8va)! | e'd'afed | %183
 A2) z2 z2 |!p! (cdefga |!p! __b) z z2 z2 |!p!!>(! (__ba=g_gf_f!>)! |!p! e) z z4 | %188
!ff!!>(!!8va(! (f''6- | f''2!>)!!f! e''d''a'f'!8va)! | e'd'afed | A2) z2 z2 |!pp! (!>!cdefga | %193
 __b) z z2 z2 |"^poco ritenuto"[Q:3/4=98]!p!!>(! (!>!__ba[Q:3/4=96]=g_g[Q:3/4=94]f_f!>)! | %195
[Q:3/4=90] e) z[Q:3/4=86] z4[Q:3/4=80] |"^(a tempo)"[Q:3/4=88]!p!!>(! (f6- | f2 e3 d!>)! |!p! d6 | %199
!p! !>!g6- | g4 f2 | f2 e2 d2 |!p!!<(! b6)!<)! |!p!"_cresc." (b4 b2 |{/_G} b4 e2 | e2"^" Pf3 e | %206
 e6 | !>!a6- | a2 =g2 f2 | =g2 f3 e | c'6) | (c'4 c'2 |!f!!>(! c'6-!>)! | c'2 b3 a |!mf!!<(! a6 | %215
 d'6!<)! |!f!!>(! d'4 c'2 | c'2 b3 a!>)! |!mf! f'6) | (f'4 f'2 |!>(! f'6 | e'2 d'2 b2 | c'6 | %223
 b2 a2 f2 | b2 a2 g2 | Pg2 f3 =e!>)! |!mf![Q:3/4=84] !>!=e6 |[Q:3/4=80] f4) (!>!a2 | %228
[Q:3/4=88] !arpeggio!a6 |!>(! [cc']2 [Bb]3!>)! [Aa] |!<(! [Aa-]6 | [dad']6!<)! | %232
!mf!!>(! [dd']3 [cc'] [cc']2 | [cgac']3 [Bgb] [Aga]2!>)! |!>(! [faf']6) | ([faf']4 [faf']2!>)! | %236
!>(! [faf']6 | [ege']2 [dgd']3 [Bgb]!>)! |!<(! [cac']6 | [Bgb]2 [Afa]2 [Bgb]2!<)! | %240
!f!"_cresc." [_cf_c']4 [Bfb]2 | [_cf_c']6- | [cfc']4 [Bfb]2 | %243
[Q:3/4=86] [_cf_c']2[Q:3/4=84] [Bfb]2[Q:3/4=82] [cfc']2 | %244
[Q:3/4=80] !>![_cg_c']4[Q:3/4=68] [Bgb]2)[Q:3/4=74] |!ff![Q:3/4=84]!8va(! (!>![bg'b']6- | %246
[Q:3/4=88] [bg'b']3!8va)! [=cg=c'] [cgc']2 | [cgc']3 [faf'] [ege']2 |[Q:3/4=100] .[dfd']2) z2 z2 | %249
 (!>!Fda!8va(!fd'b' | [c'a']2)!8va)! z2 z2 | (!>!Gca!8va(!gc'a' | [d'f']2)!8va)! z2 z2 | %253
 (!>!Fda!8va(!fd'b' | [c'a']2)!8va)! z2 z2 | (!>!Gca!8va(!gc'a' | [d'f']2)!8va)! z2 z2 | %257
 Fda!8va(!fd'a'!8va)! | d'fadFA | D[I:staff +1]F,A,D,F,,D, |[I:staff -1] z6 | %261
!8va(! !>![d'd'']6!8va)! | z6 | z6 ||[K:A][K:bass]"^sostenuto"[Q:3/4=76]!p! ([E,CE]6 | [F,CF]6- | %266
 C2 B,2 C2 | E2 D2 C2) | ([E,CE]6 | [F,CF]6- | C2 B,2 C2 | E2[Q:3/4=72] D3 C |[Q:3/4=76]!>(! C6 | %273
 B,4 A,2!>)! |!pp! C6- | C6) |[K:treble]!p![Q:3/4=72] (c6 |{Bc} B3 A B2 | c3 d c2 |{Bc} B3 A B2 | %280
[Q:3/4=60] c)[Q:3/4=76](CcGcG |[Q:3/4=80] gcgcc'g |[Q:3/4=86] c'g!8va(!g'c'g'c' | %283
[Q:3/4=76] c'')!8va)! z z2 z2 |[K:bass]!p! (!>!C6- | C6- | C2 B,2 C2 | E2 D2 C2) | (!>!C6- | C6- | %290
 C2 B,2 C2 | E2 D3[Q:3/4=42] C |[Q:3/4=76]{/C} A2 F2 D2 |!>(! C6 | B,4 (A,2!>)! | C6-) | C6) | z6 | %298
[K:treble]!pp! (c6- | c6- |[Q:3/4=60] c^dfecA |[Q:3/4=50]{G)G} (g6[Q:3/4=72] |{fg} f3 e f2 | %303
 g3 a g2 |{fg} f3 e f2 | g6- | g3) (Gg^d |[Q:3/4=80] g^d^d'g[Q:3/4=70]d'g | %308
[Q:3/4=50] g'2)"_espresso"[Q:3/4=60]!p! (g2 f2 |[Q:3/4=72] e6- | e2 e2 ^d2 | c2) z2 z2 | %312
 z2 (g2 f2 | e6- | e2 e2 ^d2 | c2) z2 z2 | z2 (c'2 b2 | a6- | a2 a2 g2 | f2) z2 z2 | z2 (c'2 b2 | %321
 a6- | a2 a2 g2 | f6- | f2 g2 a2 | g2) z2 z2 | z2 (f2 e2 | ^d6- | d2 ^d2 c2 | ^B2) z2 z2 | %330
 z2 (f2 e2 | ^d2) z2 z2 | z2[Q:3/4=60] (e2 f2) |"^leggiero"[Q:3/4=76]!<(! (GBegfe | %334
[Q:3/4=86] gbe'g'f'e' |[Q:3/4=90] bgfeBG |[Q:3/4=96] FEB,GFE |[Q:3/4=100] CEFAce | fac'e'f'a' | %339
 g'f'^d'agf | ^dBdcBA)!<)! |!mf![Q:3/4=106] (G!<(!Begfe | gbe'g'f'e' | bgfeBG | FEB,GFE | CEFAce | %346
 fac'e'f'a' | g'f'^d'agf | ^dBdcBA)!<)! |!f![Q:3/4=114] (GBegfe | gbe'g'f'e' | =c'afe=cA | %352
 FE=C[I:staff +1]A,F,E,) |[I:staff -1] (G,B,EGFE | GBegfe | =cAFE=C[I:staff +1]A, | %356
 F,E,=C,A,,F,,E,,) |[I:staff -1] z2[I:staff +1] B,,E,A,G, |[I:staff -1] B,EAGBe | agbe'a'g' | %360
 e'bageB | AGEB,[I:staff +1]A,G, | E,B,,A,,G,,E,,B,,, |[I:staff -1] z6 | z6 | %365
[K:bass]"^sostenuto"!f![Q:3/4=76] ([E,CE]6 | [F,CF]6- | C2 B,2 C2 |[Q:3/4=72] E2 D3 C | %369
[Q:3/4=76]!<(! [E,CE]6 | [F,CF]6-!<)! | C2 B,2 C2 |[Q:3/4=72] E2 D3[Q:3/4=50] C | %373
[Q:3/4=72]{/C} A2 F4 |!>(! C6 | B,4 A,2!>)! |!mf! C6- | C6) |[K:treble]!p! (c6 |{Bc} B3 A B2 | %380
 c3 d c2 |{Bc} B3 A B2 |[Q:3/4=60] c)[Q:3/4=76](CcGcG |[Q:3/4=80] gcgc[Q:3/4=86]c'g | %384
 c'g!8va(!g'[Q:3/4=70]c'g'c' | c'')!8va)! z z2 z2 |[K:bass][Q:3/4=76] (!>!C6- | C6- | C2 B,2 C2 | %389
[Q:3/4=72] E2 D3 C |[Q:3/4=76] !>!C6- | C6- | C2 B,2 C2 |[Q:3/4=72] E2 D2[Q:3/4=42] C2 | %394
[K:treble][Q:3/4=60]{/C} AGBA[Q:3/4=56]FD |[Q:3/4=72] C6 | B,4 (A,2 | C6-) | C6) | z6 |!pp! (c6- | %401
 c6- |[Q:3/4=60] c^dfecA |[Q:3/4=50]{G)G} (g6[Q:3/4=60][Q:3/4=72] |{fg} f3 e f2 | g3 a g2 | %406
[Q:3/4=68]{fg} f3 e f2 |[Q:3/4=72] g6- | g3)[Q:3/4=76] (Gg^d |[Q:3/4=80] g^d^d'gd'g | %410
[Q:3/4=50] g'2)"_espresso"[Q:3/4=64]!p! (g2 f2 |[Q:3/4=72] e6- | e2 e2 ^d2 | c2) z2 z2 | %414
 z2 (g2 f2 | e6- | e2 e2 ^d2 | c2) z2 z2 | z2 (c'2 b2 | a6- | a2 a2 g2 | f2) z2 z2 | z2 (c'2 b2 | %423
 a6- | a2 a2 g2 | f6- | f2 g2 a2 | g2) z2 z2 | z2 (f2 e2 | ^d6- | d2 ^d2 c2 | ^B2) z2 z2 | %432
 z2 (f2 e2 | ^d2) z2 z2 | z2[Q:3/4=60] (e2[Q:3/4=50] f2) |"^leggiero"[Q:3/4=76]!<(! (GBegfe | %436
[Q:3/4=86] gbe'g'f'e' |[Q:3/4=90] bgfeBG |[Q:3/4=96] FEB,GFE |[Q:3/4=100] CEFAce | fac'e'f'a' | %441
 g'f'^d'agf | ^dBdcBA)!<)! |!mf![Q:3/4=106] (G!<(!Begfe | gbe'g'f'e' | bgfeBG | FEB,GFE | CEFAce | %448
 fac'e'f'a' | g'f'^d'agf | ^dBdcBA)!<)! |!f![Q:3/4=114] (GBegfe | gbe'g'f'e' | =c'afe=cA | %454
 FE=C[I:staff +1]A,F,E,) |[I:staff -1] (G,B,EGFE | GBegfe | =cAFE=C[I:staff +1]A, | %458
 F,E,=C,A,,F,,E,,) |[I:staff -1] z2[I:staff +1] B,,E,A,G, |[I:staff -1] B,EAGBe | agbe'a'g' | %462
 e'bageB | AGEB,[I:staff +1]A,G, | E,B,,A,,G,,E,,B,,, |[I:staff -1] z6 | z6 | %467
"_sempre"!f! z2[I:staff +1] B,,=F,A,G, |[I:staff -1] B,=FAGB=f | agb=f'a'g' | =f'bag=fB | %471
 AG=FB,[I:staff +1]A,G, | =F,B,,A,,G,,=F,,B,,, |[I:staff -1] z6 | z6 | z2 (!>!^AGB^e | %476
 ^agb^e'^a'g' | ^a=e'g'^^f'e'=a | g^^fe^AG^^F) | (=A,^DGF=A^d | gfa^d'g'f' | gc'f'^e'c'g | %482
 f^ecGF^E) | (=CFBA=cf | ba!8va(!=c'f'b'a' | b=f'a'g'f'b!8va)! | ag=fBAG) | %487
[Q:3/4=106] (_B,EA=G_Be | a=g!8va(!_be'a'=g' | ad'=g'^f'd'a!8va)! | =g^fdA=GF) | %491
[Q:3/4=92] [=Gd]2"^agitato" x2 x2 | z2 (d'2 =c'2 | _b2) z2 z2 | z2 ([_B_b]2 [Aa]2 | %495
 [=G=g]2) z2 z2 | z2 (d'2 =c'2 | _b2) z2 z2 | z2 (=g2 =f2 | _e2) z2 z2 | z2 (=g'2 =f'2 | %501
 _e'2) z2 z2 | z2 ([_e_e']2 [dd']2 | [=c=c']2) z2 z2 | z2 (=g2 =f2 | _e2) z2 z2 | z2 (_e2 _d2 | %507
 _A2) z2 z2 | z2 (_e'2 _d'2 | _c'2) z2 z2 | z2 ([_c_c']2 [_B_b]2 |"_cresc." [_A_a]2) z2 z2 | %512
 z2 (_e'2 _d'2 | _c'2) z2 z2 |[Q:3/4=88] z2[Q:3/4=84] ([_c_c']2[Q:3/4=80] [_B_b]2 | %515
!ff![Q:3/4=76] [_A_a]2) z2 z2 |[Q:3/4=100]{/^g} (^g'2 ^f'=e'=bg | feBGFE | B,2) z2 z2 | (^defgab | %520
 =c'2) z2 z2 | (=c'bagfe | ^d2) z2[Q:3/4=80] z2 |[Q:3/4=100]!ff!{/g} (g'6- | g'2 f'e'bg | feBGFE | %526
 B,2) z2 z2 | (^efgabc' | =d'2) z2 z2 | (d'c'bagf | ^e2) z2 z2 | (^^fg^abc'^d' | =e'2) z2 z2 | %533
 (e'^d'c'b^ag ||[K:Db][K:treble] =g2) z2 z2 |!8va(! (=abc'd'e'f' | g'e''g'f'e'd' | c'd'=d'e'=e'f' | %538
 g'e''g'f'_e'_d' | c') z (f''=e''_e''c'' | =a'2)!8va)! z2 (f=e |_ec =A2) z2 | %542
[K:bass] (F,=E,_E,C,) z2 |[K:treble]!ff! [dd']2 (=ef (3_agf | !>!f2) ([=e=e']2 [ff']2 | %545
 [Bb]2) (cd (3fed | !>!d2) ([cc']2 [dd']2 | [Gg]2) (=AB (3dcB | !>!B2) ([=A=a]2 [Bb]2 | %549
 [Ee]2) FG (3BAG | z2 ([=df]2 [eg]2 | [cef]2) (=EF (3_AGF | %552
 !arpeggio!!>![F,B,DF]2) ([ee']2 [dd']2 | !arpeggio!!>![cf=ac']2) (=EF (3_AGF | %554
 !arpeggio!!>![F,B,DF]2) ([cc']2 [Bb]2 | !arpeggio!!>![=Acf=a]2) (=EF (3_AGF | %556
 !arpeggio!!>![F,B,DF]2) ([ee']2 [dd']2 | !arpeggio!!>![cf=ac']2) (=EF (3_AGF | %558
 !arpeggio!!>![F,B,DF]2) ([cc']2 [Bb]2 | !arpeggio!!>![=Acf=a]2) (=EF (3_AGF | %560
 !>!F2) [dd']2 [cc']2 | !arpeggio!!>![=Acf=a]2 (=B,C (3EDC | !>!C2) _B2 =A2 | %563
 !arpeggio!!>![=Acf=a]2 (=EF (3_AGF | !>!F2) [dd']2 [cc']2 | !arpeggio!!>![=Acf=a]2 (=B,C (3EDC | %566
 !>!C2)"_dim." _B2 =A2 | !>![=Acf=a]2 (=B,C (3EDC | !>!C2) _B2 =A2 | !>![=Acf=a]2 (=B,C (3EDC | %570
 !>!C2) _B2 =A2 | !>![=Acf=a]2[K:bass]!>(! (=B,,C, (3E,D,C, | !>!C,2) B,2 =A,2 | %573
 !>!F,2 (=B,,C, (3E,D,C, | !>!C,2) B,2 =A,2!>)! |!mp! !>!F,2 z2 z2 | z6 | %577
!>(! z2[Q:3/4=88]!mp! (=B,,C, (3E,D,C, |[Q:3/4=84] !>!C,2) B,2 =A,2 |[Q:3/4=80] !>!F,2 z2 z2!>)! | %580
[Q:3/4=72] z2!p! (B,,2 =A,,2 |[Q:3/4=60] F,,6) | z6 | %583
[Q:3/4=100] z2 z2[K:treble]"^sotto voce" (3(=A,B,D | F2) z2 (3(=A,B,D | F6- | F6 | %587
!ff! .B,2) z2 z2 |!>(!!8va(! ([bg'b']6- | [bg'b']6!>)! |!f! [ec'e']3 [fc'f'] [gc'g']2 | %591
 .[fd'f']2)!8va)! z2!pp! (3(=A,B,D | F2) z2 (3(=A,B,D | F6- | F6 |!ff! ._A,2) z2 z2 | %596
!>(!!8va(! ([af'a']6- | [af'a']6!>)! |!f! [ec'e']3 [fc'f'] [gc'g']2 | .[fd'f']2)!8va)! z2 z2 | %600
 !>![=Af]4 z2 | !>![=A,F]4 z2 | z6 | z6 | z6 | z6 | z6 | z2 z2!pp! (3(=A,B,D | F2) z2 (3(=A,B,D | %609
 F6- | F6 |!ff! .B,2) z2 z2 |!>(!!8va(! ([bg'b']6- | [bg'b']3 [ec'e']!>)! [ec'e']2 | %614
!f! [ec'e']3 [fc'f'] [gc'g']2 | .[fd'f']2)!8va)! z2!pp! (3(=A,B,D | F2) z2 (3(=A,B,D | F6- | F6 | %619
[K:bass]!ff! .C,2) z2 z2 |[K:treble]!>(!!8va(! ([c'a'c'']6- | [c'a'c'']6!>)! | %622
!f! [=g=e'=g']3 [ae'a'] [be'b']2 | .[af'a']2)!8va)! z2 z2 | !>![Acfa]4 z2 | !>![A,CFA]4 z2 | z6 | %627
 z6 |!f![Q:3/4=76][I:staff +1] F,,6 |!mf![Q:3/4=84]!<(!{=D,,_E,,} !trill(!TE,,6- | %630
[Q:3/4=80] !trill)!E,,6{=D,,E,,}!<)![Q:3/4=60][Q:3/4=30] | %631
!ff![Q:3/4=100]!>(!!8va(![I:staff -1] (!>!f''6-!>)! | f''2!f! e''d''a'f'!8va)! | e'd'afed | %634
 A2) z2 z2 |!p! (cdefga |!p! __b) z z2 z2 |!p!!>(! (__ba=g_gf_f!>)! |!p! e) z z4 | %639
!ff!!>(!!8va(! (f''6- | f''2!>)!!f! e''d''a'f'!8va)! | e'd'afed | A2) z2 z2 |!pp! (!>!cdefga | %644
 __b) z z2 z2 |"^poco ritenuto"[Q:3/4=98]!>(! (!>!__ba[Q:3/4=96]=g_g[Q:3/4=94]f_f!>)! | %646
[Q:3/4=90] e) z[Q:3/4=86] z2[Q:3/4=80] z2 |"^(a tempo)"[Q:3/4=88]!p!!>(! (f6- | f2 e3 d!>)! | d6 | %650
 !>!g6- | g4 f2 | f2 e2 d2 |!<(! b6)!<)! |!mp!"_cresc." (b4 b2 |{/_G} b4 e2 | e2"^" Pf3 e | e6 | %658
 !>!a6- | a2 =g2 f2 | =g2 f3 e | c'6) | (c'4 c'2 |!f!!>(! c'6-!>)! | c'2 b3 a |!mf!!<(! a6 | %666
 d'6!<)! |!f!!>(! d'4 c'2 | c'2 b3 a!>)! |!mf! f'6) | (f'4 f'2 |!>(! f'6 | e'2 d'2 b2 | c'6 | %674
 b2 a2 f2 | b2 a2 g2 | Pg2 f3 =e!>)! |!mf! !>!=e6 | f4) (!>!a2 | !arpeggio!a6 | %680
!>(! [cc']2 [Bb]3!>)! [Aa] |!<(! [Aa-]6 | [dad']6!<)! |!mf!!>(! [dd']3 [cc'] [cc']2 | %684
 [cgac']3 [Bgb] [Aga]2!>)! |!>(! !arpeggio![faf']6) | ([faf']4 [faf']2!>)! |!>(! [faf']6 | %688
 [ege']2 [dgd']3 [Bgb]!>)! |!<(! [cac']6 | [Bgb]2 [Afa]2 [Bgb]2!<)! | %691
!f!"_cresc."!<(! [_cf_c']4 [Bfb]2 | [_cf_c']6- | [cfc']4 [Bfb]2 | [_cf_c']2 [Bfb]2 [cfc']2 | %695
 [_cg_c']4 [Bgb]2 | [d=gd']6- | [dgd']4[Q:3/4=84] [=c=g=c']2!<)! |!f! [d=gd']2 [cgc']2 [dgd']2) | %699
!mf![Q:3/4=88] ([dad']4 [cac']2 | [e=ae']4 [dad']2) | ([e_ae']4 [=da=d']2 | [f_c'f']4 [fc'f']2 | %703
!<(! [fbf']4 [=eb=e']2 | [=gd'=g']4 [gd'g']2) |[Q:3/4=84] ([=gc'=g']4 [ac'a']2 | %706
[Q:3/4=80] [__bc'__b']4[Q:3/4=76] [cgc']2!<)! |!ff![Q:3/4=100] .[dfd']2) z2 z2 | %708
 (!>!Fda!8va(!fd'b' | [c'a']2)!8va)! z2 z2 | (!>!Gca!8va(!gc'a' | [d'f']2)!8va)! z2 z2 | %712
 (!>!Fda!8va(!fd'b' | [c'a']2)!8va)! z2 z2 | (!>!Gca!8va(!gc'[Q:3/4=60]a') || %715
[K:A][Q:3/4=100]{/c'} (c''2 b'a'e'c'!8va)! | baecBA |[K:bass] ECB,A, E,2) | %718
!>(! ([=F,=F]4!f! [E,E]2)[Q:3/4=60]!8va(!!>)!!8va)! | %719
[K:treble]!ff![Q:3/4=100]!8va(!{/c'} (c''2 b'a'e'c'!8va)! | baecBA |[K:bass] ECB,A, E,2) | %722
!>(! ([=F,=F]4 [E,E]2)!>)! ||[K:Db][Q:3/4=106] [F,F]2[K:treble] (F,=A,DF | %724
"_cresc." [df]2) (F,=A,DF | [df]2) (F,B,DF | [df]2) (F,B,=DF | [=df]2) (G,B,=DG | [=dg]2) (G,B,EG | %729
 [eg]2) (=G,D=E=G | [=e=g]2) (Adfa- | [ad'f'a']2) z2[Q:3/4=130]"^più mosso" (3(CDF | %732
 A2) z2 (3(=B,CF | A2) z2 (3(=A,B,F | _A2) z2 z2 | .A,2 z2 z2 |!>(!!8va(! [af'a']6-!>)! | %737
 [af'a']2 [ae'a']2 [af'a']2 | [ae'a']2 [af'a']2 [ae'a']2 | .[ad'f'a']2!8va)! z2 (3(CDF | %740
 A2) z2 (3(=B,CF | A2) z2 (3(=A,B,F | _A2) z2 z2 | .A,2 z2 z2 |!>(!!8va(! [af'a']6-!>)! | %745
 [af'a']2 [ae'a']2 [af'a']2 | [ae'a']2 [af'a']2 [ae'a']2 |!>(!"_cresc." ([aa']6!>)! | %748
!>(! [=a=a']6!>)! |!>(! [=a=a']6!>)! |!>(! [bb']6!>)! |!>(! [bb']6!>)! |!>(! [=b=b']6!>)! | %753
!>(! [=b=b']6!>)! |!>(! [c'c'']6!>)! |!ff! f''2 e''d''a'f'!8va)! | e'd'afed | AFED A,2) | %758
!>(! ([__B,__B]4!f! [A,A]2)!>)! |!ff!!8va(! (f''2 e''d''a'f'!8va)! | e'd'afed | AFED A,2) | %762
!ff!!>(! ([__B,__B]4 [A,A]2)!>)! |!f! [A,FA]2 z2 z2 | %764
!ff!"^più mosso"[Q:3/4=132]!>(! ([__B,__B]4 [A,A]2)!>)! |!f! [A,FA]2 z2 z2 | %766
!ff![Q:3/4=134]!>(! ([__B,__B]4 [A,A]2)!>)! |!f! [A,FA]2 z2 z2 | %768
!ff![Q:3/4=136]!>(! ([__B,__B]4 [A,A]2)!>)! |[Q:3/4=138]!<(! .[__B,F__B]2 .[A,FA]2 .[B,FB]2 | %770
 .[A,FA]2 .[__B,F__B]2 .[A,FA]2!<)! |!ff! [=A,F=A]2 z2 z2 | !>![C=EBc]2 z2 z2 | %773
 !>![=Acf=a]2 z2 z2 | !>![G_Aceg_a]2 z2 z2 | !>![FAdf]6 | z6 | !>![F,A,DF]6 | z6[Q:3/4=60]!8va(! | %779
[Q:3/4=40]{/[dad']} f''6!8va)! |] %780
V:2
"^sotto voce" (B,,4 (3=A,,B,,D, | F,2) z2 (3(=A,,B,,D, | F,2) z2 z2 | z6 |!ped! .[B,,,B,,]2 z2 z2 | %5
[K:treble] [B,CEGB]6- | [B,CEGB]6 | [B,CEGB]3 [B,CEGB] [B,CEGB]2!ped-up! | %8
 .[B,DFB]2 z2[K:bass] (3(=A,,B,,D, | F,2) z2 (3(=A,,B,,D, | F,2) z2 z2 | z6 | %12
!ped! .[_A,,,_A,,]2 z2 z2 |[K:treble] [A,Fd]6- | [A,Fd]6 | [A,EGA]3 [A,EGA] [A,EGA]2!ped-up! | %16
 .[DFA]2 z2 z2 |[K:bass]!ped! !>![F,CF]4 z2 | !>![F,,C,F,]4 z2!ped-up! | (!>![F,,,F,,]6- | %20
 [F,,,F,,]6- | [F,,,F,,]2 .[G,,,G,,]2) z2 | z6 | z6 | z2 z2 (3(=A,,B,,D, | F,2) z2 (3(=A,,B,,D, | %26
 F,2) z2 z2 | z6 |!ped! .[B,,,B,,]2 z2 z2 |[K:treble] [B,CEGB]6- | [B,CEGB]3 [B,CEGB] [B,CEGB]2 | %31
 [B,CEGB]3 [B,CEGB] [B,CEGB]2!ped-up! | .[B,DFB]2 z2[K:bass] (3(=A,,B,,D, | F,2) z2 (3(=A,,B,,D, | %34
 F,2) z2 z2 | z6 |!ped! .[C,,,C,,]2 z2 z2 |[K:treble] [CFAc]6- | [CFAc]6 | %39
 [C=EBc]3 [CEBc] [CEBc]2!ped-up! | .[FAc]2 z2 z2 |[K:bass]!ped! !>![F,CF]4 z2 | %42
 !>![F,,C,F,]4 z2!ped-up! | (!>![=E,,,=E,,]6- | [E,,,E,,]6- | [E,,,E,,]2 .[F,,,F,,]2) z2 | z6 | %47
 z6 |!ped! .[D,,,D,,]2 z2 ([A,,A,]2 | [F,D]2) z2 ([A,,A,]2 | [F,D]2) z2 z2 | z6!ped-up! | %52
!ped! .[A,,,A,,]2 z2 z2!ped-up! |!>(!!ped! ([=G,C_G]2 [A,CG]2!p! [A,CG]2)!>)!!ped-up! | %54
!ped! z6!ped-up! |!ped!!>(! ([__B,CG]2 [A,CG]2 [A,CG]2)!ped-up!!>)! | %56
!ped! .[D,,,D,,]2 z2 ([A,,A,]2 | [F,D]2) z2 ([A,,A,]2 | [F,D]2) z2 z2 | z6!ped-up! | ([A,,E,G,]6 | %61
[K:treble] !>!CDEFGA | __B) z z2 z2 |[K:bass]!>(! !>!__B,A,=G,_G,F,!pp!E,!>)! | %64
"^con anima"!ped! D, x x4 | D, x x4!ped-up! |!ped! G, x x4!ped-up! |!ped! D, x x4!ped-up! | %68
!ped! A, x x4!ped-up! |!ped! D, x x4!ped-up! |!ped! G, x x4!ped-up! |!ped! _F, x x4!ped-up! | %72
!ped! E, x x4!ped-up! |!ped! =G, x x4!ped-up! |!ped! A, x x4!ped-up! |!ped! E, x x4!ped-up! | %76
!ped! B, x x4!ped-up! |!ped! E, x x4!ped-up! |!ped! A, x x4!ped-up! |!ped! =G,6!ped-up! | %80
!ped! _G,6 |"^dolce" G,6!ped-up! |!ped! F,6 | F, x x4!ped-up! |!ped! E, x x4!ped-up! | %85
!ped! E, x x4!ped-up! |!ped! =D, x x4!ped-up! |!ped! =D, x x4!ped-up! |!ped! E, x x4!ped-up! | %89
!ped! G,, x x4!ped-up! |!ped! A,, x x4!ped-up! |!ped! A,, x x4!ped-up! |!ped! A,, x x4!ped-up! | %93
!ped! A,, x x4!ped-up! |!ped! D, x x4!ped-up! |!ped! A, x x4!ped-up! |!ped! G,6 | G,6!ped-up! | %98
!ped! F,6 | F, x x4!ped-up! |!ped! E, x x4!ped-up! |!ped! E, x x4!ped-up! |!ped! =D, x x4!ped-up! | %103
!ped! =D, x x4!ped-up! |!ped! E, x x4!ped-up! |!ped! G,, x x4!ped-up! |!ped! A,, x x4!ped-up! | %107
!ped! A,, x x4!ped-up! |!ped! A,, x x4!ped-up! |!ped! A,, x x4 | A,, x x4!ped-up! | %111
!ped! A,, x x4!ped-up! |!ped! A,, x x4 | A,, x x4!ped-up! |!ped! A,, x x4!ped-up! | %115
!ped! A,, x x4!ped-up! |!ped! .D,,2 z2 (A,,F, | D2) z2 z2!ped-up! |!ped! .A,,,2 z2 (A,,E, | %119
 C2) z2 z2!ped-up! |!ped! .D,,2 z2 (A,,F, | D2) z2 z2!ped-up! |!ped! .A,,,2 z2 (A,,E, | %123
 C2) z2 z2!ped-up! |!ped! .D,,,2 z2 (A,,F, | D2) z2 z2 | z6 | z6 | .[D,,,D,,]2 z2 z2 | %129
[K:treble] !>![Dd]6!ped-up! | z6 | z6 | z2 z2[K:bass] (3(=A,,B,,D, | F,2) z2 (3(=A,,B,,D, | %134
 F,2) z2 z2 | z6 |!ped! .[B,,,B,,]2 z2 z2 |[K:treble] [B,CEGB]6- | [B,CEGB]6 | %139
 [B,CEGB]3 [B,CEGB] [B,CEGB]2!ped-up! | .[B,DFB]2 z2[K:bass] (3(=A,,B,,D, | F,2) z2 (3(=A,,B,,D, | %142
 F,2) z2 z2 | z6 |!ped! .[_A,,,_A,,]2 z2 z2 |[K:treble] [A,Fd]6- | [A,Fd]6!ped-up! | %147
!ped! (5:3:5[A,EGA]2 [A,EGA]2 [A,EGA]2 [A,EGA]2 [A,EGA]2!ped-up! | .[DFA]2 z2 z2 | %149
[K:bass]!ped! !>![F,CF]4 z2 | !>![F,,C,F,]4 z2!ped-up! | (!>![F,,,F,,]6- | [F,,,F,,]6- | %153
 [F,,,F,,]2 .[G,,,G,,]2) z2 | z6 | z6 | z2 z2 (3(=A,,B,,D, | F,2) z2 (3(=A,,B,,D, | F,2) z2 z2 | %159
 z6 |!ped! .[B,,,B,,]2 z2 z2 |[K:treble] [B,CEGB]6- | [B,CEGB]3 [B,CEGB] [B,CEGB]2 | %163
 [B,CEGB]3 [B,CEGB] [B,CEGB]2!ped-up! | .[B,DFB]2 z2[K:bass] (3(=A,,B,,D, | F,2) z2 (3(=A,,B,,D, | %166
 F,2) z2 z2 | z6 |!ped! .[C,,,C,,]2 z2 z2 |[K:treble] [CFAc]6- | [CFAc]6!ped-up! | %171
!ped! (4:3:4([C=EBc]2 [CEBc]2 [CEBc]2 [CEBc]2!ped-up! | .[FAc]2) z2 z2 | %173
[K:bass]!ped! !>![F,CF]4 z2 | !>![F,,C,F,]4 z2!ped-up! | !>![=E,,,=E,,]6- | [E,,,E,,]6 | (F,,,6 | %178
!ped!{=D,,,_E,,,} !trill(!TE,,,6- | E,,,6{=D,,,E,,,}!ped-up! |!ped! .[_D,,,_D,,]2) z2 ([A,,A,]2 | %181
 [F,D]2) z2 ([A,,A,]2 | [F,D]2) z2 z2 | z6!ped-up! |!ped! .[A,,,A,,]2 z2 z2!ped-up! | %185
!>(!!ped! ([=G,C_G]2 [A,CG]2!p! [A,CG]2)!>)!!ped-up! |!ped! z6!ped-up! | %187
!ped!!>(! ([__B,CG]2 [A,CG]2 [A,CG]2)!ped-up!!>)! |!ped! .[D,,,D,,]2 z2 ([A,,A,]2 | %189
 [F,D]2) z2 ([A,,A,]2 | [F,D]2) z2 z2 | z6!ped-up! | ([A,,E,G,]6 |[K:treble] !>!CDEFGA | %194
 __B) z z2 z2 |[K:bass]!>(! !>!__B,A,=G,_G,F,E,!>)! |"^con anima"!ped! D, x x4 | D, x x4!ped-up! | %198
!ped! G, x x4!ped-up! |!ped! D, x x4!ped-up! |!ped! A, x x4!ped-up! |!ped! D, x x4!ped-up! | %202
!ped! G, x x4!ped-up! |!ped! _F, x x4!ped-up! |!ped! E, x x4!ped-up! |!ped! =G, x x4!ped-up! | %206
!ped! A, x x4!ped-up! |!ped! E, x x4!ped-up! |!ped! B, x x4!ped-up! |!ped! E, x x4!ped-up! | %210
!ped! A, x x4!ped-up! |!ped! =G,6!ped-up! |!ped! _G,6 |"^dolce" G,6!ped-up! |!ped! F,6 | %215
 F, x x4!ped-up! |!ped! E, x x4!ped-up! |!ped! E, x x4!ped-up! |!ped! =D, x x4!ped-up! | %219
!ped! =D, x x4!ped-up! |!ped! E, x x4!ped-up! |!ped! G,, x x4!ped-up! |!ped! A,, x x4!ped-up! | %223
!ped! A,, x x4!ped-up! |!ped! A,, x x4!ped-up! |!ped! A,, x x4!ped-up! |!ped! D, x x4!ped-up! | %227
!ped! A, x x4!ped-up! |!ped! G,6 | G,6!ped-up! |!ped! F,6 | F, x x4!ped-up! | %232
!ped! E, x x4!ped-up! |!ped! E, x x4!ped-up! |!ped! =D, x x4!ped-up! |!ped! =D, x x4!ped-up! | %236
!ped! E, x x4!ped-up! |!ped! G,, x x4!ped-up! |!ped! A,, x x4!ped-up! |!ped! A,, x x4!ped-up! | %240
!ped! A,, x x4!ped-up! |!ped! A,, x x4 | A,, x x4!ped-up! |!ped! A,, x x4!ped-up! |!ped! A,, x x4 | %245
 A,, x x4!ped-up! |!ped! A,, x x4!ped-up! |!ped! A,, x x4!ped-up! |!ped! .D,,2 z2 (A,,F, | %249
 D2) z2 z2!ped-up! |!ped! .A,,,2 z2 (A,,E, | C2) z2 z2!ped-up! |!ped! .D,,2 z2 (A,,F, | %253
 D2) z2 z2!ped-up! |!ped! .A,,,2 z2 (A,,E, | C2) z2 z2!ped-up! |!ped! .D,,,2 z2 (A,,F, | %257
 D2) z2 z2 | z6 | z6 | .[D,,,D,,]2 z2 z2 |[K:treble] !>![Dd]6 | z6 | z6!ped-up! || %264
[K:A][K:bass]"^sotto voce"!ped! [A,,,A,,]6!ped-up! |!ped! [D,,A,,]6- | [D,,A,,]6- | %267
 [D,,A,,]6!ped-up! |!ped! [A,,,A,,]6!ped-up! |!ped! [D,,A,,]6- | [D,,A,,]6- | [D,,A,,]6!ped-up! | %272
!ped! D,6- | D,4!ped-up!!ped! (C,2 | E,6-) | E,6!ped-up! |!ped! z2 z2 ([E,=G,^A,]2!ped-up!!ped! | %277
 [D,F,B,]2) z2 ([F,=A,D]2!ped-up! |!ped! [^E,G,C]4 [=E,=G,^A,]2!ped-up!!ped! | %279
 [D,F,B,]2) z2 ([F,=A,D]2!ped!!ped-up! |"^delicatiss." !arpeggio![C,G,^E]2) z2 z2 | .C,,2 z4 | z6 | %283
 z6!ped-up! |!ped! [A,,-E,]6!ped-up! |!ped! [D,,A,,]6- | [D,,A,,]6- | [D,,A,,]6!ped-up! | %288
!ped! [A,,,A,,]6!ped-up! |!ped! [D,,A,,]6- | [D,,A,,]6- | [D,,A,,]6-!ped-up!!ped! | %292
 [D,,A,,]6!ped-up! |!ped! E,6 | D,4!ped-up!!ped! (C,2 | E,6-) | E,6!ped-up! | z6 |!ped! z6 | z6 | %300
"^slentando" z6!ped-up! |!ped! z2 z2[K:treble] ([B,=D^E]2!ped-up!!ped! | %302
 [A,CF]2) z2 ([C=EA]2!ped-up! |!ped! [^B,^DG]4 [=B,=D^E]2!ped-up!!ped! | %304
 [A,CF]2) z2!ped-up! ([C=EA]2!ped! | !arpeggio![G,^D^B]2) z2 z2 |[K:bass] .G,,2 z4 | z6 | %308
 z6!ped!!ped-up! |"_legato"!ped! z2!ped-up! E2 G,2- |!ped! G,2 ^B,2 G,2-!ped-up! | %311
!ped! G,2 C2 G,2-!ped-up! |!ped! G,2 ^D2 G,2-!ped-up! |!ped! G,2 E2 G,2-!ped-up! | %314
!ped! G,2 ^B,2 G,2-!ped-up! |!ped! G,2 C2 G,2!ped-up! |!ped! =B,2 G2 C2-!ped-up! | %317
!ped! C2 F2 C2-!ped-up! |!ped! C2 ^E2 C2-!ped-up! |!ped! C2 F2 C2-!ped-up! | %320
!ped! C2 G2 C2-!ped-up! |!ped! C2 A2 C2-!ped-up! |!ped! C2 ^E2 C2-!ped-up! | %323
!ped! C2 F2 C2!ped-up! |!ped! .A,,2 (C2 F,2)!ped-up! |"_legato"!ped! ^D,6!ped-up! | %326
!ped! E,6!ped-up! |!ped! F,6!ped-up! |!ped! E,6!ped-up! |!ped! ^D,6!ped-up! |!ped! E,6!ped-up! | %331
!ped! x2 F,2- =A,2-!ped-up! |!ped! [F,A,^D]6!ped-up! |!ped! z2 [B,E]2 G,2!ped-up! | z2 [B,E]2 G,2 | %335
!ped! .C,2 [B,E]2 G,2!ped-up! | (B,,6 |!ped! .A,,2) ([CE]2 F,2)!ped-up! | %338
!ped! .F,,2 ([CE]2 F,2)!ped-up! |!ped! .B,,2 [B,^D]4-!ped-up! |!ped! [B,D]6!ped-up! | %341
!ped! z2 [B,E]2 G,2!ped-up! | z2 [B,E]2 G,2 |!ped! .C,2 [B,E]2 G,2!ped-up! |!ped! (B,,6!ped-up! | %345
!ped! .A,,2) ([CE]2 F,2)!ped-up! |!ped! .F,,2 ([CE]2 F,2)!ped-up! |!ped! .B,,2 [B,^D]4-!ped-up! | %348
!ped! [B,D]6!ped-up! |!ped! z2 [B,E]2 G,2!ped-up! | .B,,2 ([B,E]2 G,2) | %351
!<(!!ped! ([A,,A,]2!<)! [=C,=C]4)!ped-up! | z6 |!ped! z2 E,2 B,,2!ped-up! | .B,,,2 (E,2 B,,2) | %355
!ped! ([A,,,A,,]2 [=C,,=C,]4)!ped-up! | z6 |!ped! .E,,,2!ff! z2 z2!ped-up! | z6 | %359
 !arpeggio![E,B,G]2 z4 | z6 | z6 | z6 | E,,,6 | z6 |!ped! [A,,,A,,]6!ped-up! | %366
!ped! [D,,A,,]6-!ped-up! | [D,,A,,]6- | [D,,A,,]6 |!ped! [A,,,A,,]6!ped-up! | %370
!ped! [D,,A,,]6-!ped-up! | [D,,A,,]6- | [D,,A,,]6-!ped-up!!ped! | [D,,A,,]6 |!ped! D,6-!ped-up! | %375
 D,4!ped-up!!ped! (C,2 | E,6-) | E,6 |!ped! z2 z2 ([E,=G,^A,]2!ped-up!!ped!!ped-up! | %379
 [D,F,B,]2) z2 ([F,=A,D]2 |!ped! [^E,G,C]4 [=E,=G,^A,]2!ped-up!!ped!!ped-up! | %381
 [D,F,B,]2) z2 ([F,=A,D]2!ped!!ped-up! |"^delicatiss." !arpeggio![C,G,^E]2) z2 z2 | .C,,2 z4 | z6 | %385
 z6 |!ped! [A,,-E,]6!ped-up! |!ped! [D,,A,,]6-!ped-up! | [D,,A,,]6- | [D,,A,,]6 | %390
!ped! [A,,,A,,]6!ped-up! |!ped! [D,,A,,]6-!ped-up! | [D,,A,,]6- | [D,,A,,]6-!ped-up!!ped! | %394
 [D,,A,,]6 |!ped! E,6!ped-up! | D,4!ped-up!!ped! (C,2 | E,6-) | E,6 | z6 |!ped! z6!ped-up! | z6 | %402
"^slentando" z6 |!ped! z2 z2[K:treble] ([B,=D^E]2!ped-up!!ped!!ped-up! | [A,CF]2) z2 ([C=EA]2 | %405
!ped! [^B,^DG]4 [=B,=D^E]2!ped-up!!ped!!ped-up! | [A,CF]2) z2 ([C=EA]2!ped-up!!ped! | %407
 !arpeggio![G,^D^B]2) z2 z2 |[K:bass] .G,,2 z4 | z6 | z6!ped!!ped-up! | %411
"_legato"!ped! z2!ped-up! E2 G,2- |!ped! G,2 ^B,2 G,2-!ped-up! |!ped! G,2 C2 G,2-!ped-up! | %414
!ped! G,2 ^D2 G,2-!ped-up! |!ped! G,2 E2 G,2-!ped-up! |!ped! G,2 ^B,2 G,2-!ped-up! | %417
!ped! G,2 C2 G,2!ped-up! |!ped! =B,2 G2 C2-!ped-up! |!ped! C2 F2 C2-!ped-up! | %420
!ped! C2 ^E2 C2-!ped-up! |!ped! C2 F2 C2-!ped-up! |!ped! C2 G2 C2-!ped-up! | %423
!ped! C2 A2 C2-!ped-up! |!ped! C2 ^E2 C2-!ped-up! |!ped! C2 F2 C2!ped-up! | %426
!ped! .A,,2 (C2 F,2)!ped-up! |"_legato"!ped! ^D,6!ped-up! |!ped! E,6!ped-up! |!ped! F,6!ped-up! | %430
!ped! E,6!ped-up! |!ped! ^D,6!ped-up! |!ped! E,6!ped-up! |!ped! x2 F,2- =A,2-!ped-up! | %434
!ped! [F,A,^D]6!ped-up! |!ped! z2 [B,E]2 G,2!ped-up! | z2 [B,E]2 G,2 | %437
!ped! .C,2 [B,E]2 G,2!ped-up! | (B,,6 |!ped! .A,,2) ([CE]2 F,2)!ped-up! | %440
!ped! .F,,2 ([CE]2 F,2)!ped-up! |!ped! .B,,2 [B,^D]4-!ped-up! |!ped! [B,D]6!ped-up! | %443
!ped! z2 [B,E]2 G,2!ped-up! | z2 [B,E]2 G,2 |!ped! .C,2 [B,E]2 G,2!ped-up! |!ped! (B,,6!ped-up! | %447
!ped! .A,,2) ([CE]2 F,2)!ped-up! |!ped! .F,,2 ([CE]2 F,2)!ped-up! |!ped! .B,,2 [B,^D]4-!ped-up! | %450
!ped! [B,D]6!ped-up! |!ped! z2 [B,E]2 G,2!ped-up! | .B,,2 ([B,E]2 G,2) | %453
!<(!!ped! ([A,,A,]2!<)! [=C,=C]4)!ped-up! | z6 |!ped! z2 E,2 B,,2!ped-up! | .B,,,2 (E,2 B,,2) | %457
!ped! ([A,,,A,,]2 [=C,,=C,]4)!ped-up! | z6 |!ped! .E,,,2!ff! z2 z2!ped-up! | z6 | %461
 !arpeggio![E,B,G]2 z4 | z6 | z6 | z6 | E,,,6 | z6 |!ped! .[=D,,,=D,,]2 z2 z2!ped-up! | z6 | %469
 !arpeggio![D,G,B,=F]2 z4 | z6 | z6 | z6 | D,,,6- | (D,,,6 |!ped! .[C,,,C,,]2) z2 z2!ped-up! | %476
 ([G,,G,]2 [^D,^D]2 [C,C]2 |!ped! !>![C,C]4) z2!ped-up! | .[C,,C,]2 z2 z2 | %479
!ped! .[C,,,C,,]2 z2 z2!ped-up! | ([F,,F,]2 [^D,^D]2 [C,C]2 | %481
!ped! .[C,C]2) ([^^F,,,^^F,,]2 [G,,,G,,]2!ped-up! | [G,,,G,,]2 [^D,,^D,]2 [C,,C,]2 | %483
!ped! .[=D,,=D,]2) z2 z2!ped-up! | ([A,,A,]2 [E,E]2 [D,D]2 |!ped! !>![D,D]4) z2!ped-up! | %486
 .[D,,D,]2 z2 z2 |!ped! .[D,,,D,,]2 z2 z2!ped-up! | ([=G,,=G,]2 [E,E]2 [D,D]2 | %489
!ped! .[D,D]2) ([C,,C,]2 [D,,D,]2!ped-up! |!ped! [D,,D,]2) ([B,,,B,,]2 [=C,,=C,]2!ped-up! | %491
!ped! [_B,,,_B,,]2) (D2 [D,=G,]2)!ped-up! |!ped! !>!A,,2 (D2 [D,A,]2)!ped-up! | %493
!ped! !>!=G,,2 (D2 [D,_B,]2)!ped-up! |!ped! =C,2 (D2 [^F,A,]2)!ped-up! | %495
!ped! !>!_B,,2 (D2 [D,=G,]2)!ped-up! |!ped! !>!A,,2 (D2 [D,A,]2)!ped-up! | %497
!ped! !>!=G,,2 (D2 =G,2)!ped-up! |!ped! !>!=B,,2 (D2 =G,2)!ped-up! | %499
!ped! !>!=C,2 (_E2 =G,2)!ped-up! |!ped! !>!D,2 (=F2 [=G,B,]2)!ped-up! | %501
!ped! !>!_E,2 (=G2 [=G,=C]2)!ped-up! |!ped! =F,2 (=G2 [=G,_B,]2)!ped-up! | %503
!ped! _E,2 (_E2 [=G,=C]2)!ped-up! |!ped! D,2 (D2 =G,2)!ped-up! | %505
!ped! =C,2 (=C2 [_E,=G,]2)!ped-up! |!ped! _B,,2 (_D2 [_E,=G,]2)!ped-up! | %507
!ped! !>!_A,,2 (_C2 [_E,_A,]2)!ped-up! |!ped! !>!=G,,2 (_E2 [_E,_B,]2)!ped-up! | %509
!ped! !>!_A,,2 (_E2 [_E,_A,_C]2)!ped-up! |!ped! !>!_B,,2 (_E2 [_E,=G,_D]2)!ped-up! | %511
!ped! !>!_C,2 (_E2 [_E,_A,_C]2)!ped-up! |!ped! !>!=G,,2 (_E2 [_E,_B,]2)!ped-up! | %513
!ped! !>!_A,,2 (_E2 [_E,_A,_C]2)!ped-up! |!ped! !>!_B,,2 (_E2 [_E,=G,_D]2)!ped-up! | %515
!ped! .[_C,,_C,]2 z2 ([^G,=E]2!ped-up! | [=B,=B]2) z2 ([G,E]2 | [B,B]2) z4 | z6 | %519
!ped! .[B,,,B,,]2 z2 z2!ped-up! | ([A,=C^DF]2!>(! [A,CDG]2 [A,CDF]2 | [A,=C^DF]2)!>)! z2 z2 | %522
!ped! ([B,,,B,,]2 [A,,,A,,]2!ped-up! [=C,,=C,]2 |!ped! .[B,,,B,,]2) ([G,E]2 [G,E]2!ped-up! | %524
 [B,B]3) ([G,E] [G,E]2 | [B,B]2) z2 z2 | z6 |!ped! .[=D,,=D,]2 z2 z2!ped-up! | %528
[K:treble] ([B,FG]2 [B,FA]2 [B,FG]2 | [B,^EG]2) z2 z2 |[K:bass] ([D,,D,]2 [^B,,,^B,,]2 [C,,C,]2 | %531
!ped! .[E,,E,]2) z2!ped-up! z2 |[K:treble] ([CG^A]2 [CGB]2 [CGA]2 | [C^^F^A]2) z4 || %534
[K:Db][K:bass] ([_F,,_F,]2 [=D,,=D,]2 [E,,E,]2 |!ped! .[G,,G,]2) z2!ped-up![K:treble] ([C=A]2 | %536
 [E=Ae]2) z2 [CEA]2 | [E=Ae]2 z2!ped-up!!ped! ([G,G]2 |!<(! [G,G]2 [G,G]2 [G,G]2!<)! | %539
!ped! .[F,CE=A]2) z4!ped-up! | (f'=e'_e'c' =a2) |[K:bass] z2 (F=E_EC | =A,2) z2 !>!F,,2 | %543
!ped! .[B,,,B,,]2 ([B,B]2!ped-up! [DF]2) |!ped! !>![_A,,_A,]2 ([A,A]2 [CE]2)!ped-up! | %545
!ped! !>![G,,G,]2 ([G,G]2 [B,D]2)!ped-up! |!ped! !>![F,,F,]2 ([F,F]2 [A,D]2)!ped-up! | %547
!ped! !>![E,,E,]2 ([E,E]2 [G,B,]2)!ped-up! |!ped! !>![D,,D,]2 ([D,D]2 [F,B,]2)!ped-up! | %549
!ped! !>![C,,C,]2 ([C,C]2 [E,G,]2)!ped-up! |!ped! !>![B,,,B,,]2 ([B,,B,]2 [E,G,]2!ped-up! | %551
!ped! !>![=A,,C,F,=A,]2) (=E,F, (3_A,G,F,!ped-up! | %552
!ped! !arpeggio!!>![B,,,B,,]2) ([E,E]2 [D,D]2!ped-up! | %553
!ped! !arpeggio!!>![F,,C,=A,]2) (=E,F, (3_A,G,F,!ped-up! | %554
!ped! !arpeggio!!>![B,,,B,,]2) ([C,C]2 [B,,B,]2!ped-up! | %555
!ped! !arpeggio!!>![F,,C,=A,]2) (=E,F, (3_A,G,F,!ped-up! | %556
!ped! !arpeggio!!>![B,,,B,,]2) ([E,E]2 [D,D]2!ped-up! | %557
!ped! !arpeggio!!>![F,,C,=A,]2) (=E,F, (3_A,G,F,!ped-up! | %558
!ped! !arpeggio!!>![B,,,B,,]2) ([C,C]2 [B,,B,]2!ped-up! | %559
!ped! !arpeggio!!>![F,,C,=A,]2) (=E,F, (3_A,G,F,!ped-up! |!ped! !>!F,2) D2 C2!ped-up! | %561
!ped! !arpeggio!!>![F,,C,=A,]2 (=B,,C, (3E,D,C,!ped-up! |!ped! !>![C,,C,]2) _B,2 =A,2!ped-up! | %563
!ped! !arpeggio!!>![F,,C,=A,]2 (=E,F, (3_A,G,F,!ped-up! |!ped! !>!F,2) D2 C2!ped-up! | %565
!ped! !arpeggio!!>![F,,C,=A,]2 (=B,,C, (3E,D,C,!ped-up! |!ped! !>![C,,C,]2) _B,2 =A,2!ped-up! | %567
!ped! !>![F,,C,F,]2 (=B,,C, (3E,D,C,!ped-up! |!ped! !>![C,,C,]2) _B,2 =A,2!ped-up! | %569
!ped! !>![F,,C,F,]2 (=B,,C, (3E,D,C,!ped-up! |!ped! !>![C,,C,]2) _B,2 =A,2!ped-up! | %571
!ped! !>![F,,C,F,]2"^carando" (=B,,,C,, (3E,,D,,C,,!ped-up! |!ped! !>!C,,2) B,,2 =A,,2!ped-up! | %573
!ped! !>!F,,2 (=B,,,C,, (3E,,D,,C,,!ped-up! |!ped! !>!C,,2) B,,2 =A,,2!ped-up! | !>!F,,2 z2 z2 | %576
 z6 |"^smorzando" z2 (=B,,,C,, (3E,,D,,C,, |!ped! !>!C,,2) B,,2 =A,,2!ped-up! | !>!F,,2 z2 z2 | %580
 z2 (B,,,2 =A,,,2 | F,,,6) | z6 | z2 z2 (3(=A,,B,,D, | F,2) z2 (3(=A,,B,,D, | F,6- | F,6 | %587
!ped! .[B,,,B,,]2) z2 z2!ped-up! |[K:treble] [B,CEGB]6- | [B,CEGB]6 | %590
 [B,CEGB]3 [B,CEGB] [B,CEGB]2 | .[B,DFB]2 z2[K:bass] (3(=A,,B,,D, | F,2) z2 (3(=A,,B,,D, | F,6- | %594
 F,6 |!ped! .[_A,,,_A,,]2) z2 z2!ped-up! |[K:treble] [A,Fd]6- | [A,Fd]6 | %598
 [A,EGA]3 [A,EGA] [A,EGA]2 | .[DFA]2 z2 z2 |[K:bass]!ped! !>![F,CF]4 z2!ped-up! | %601
 !>![F,,C,F,]4 z2 | (!>![F,,,F,,]6- | [F,,,F,,]6- | [F,,,F,,]2 .[G,,,G,,]2) z2 | z6 | z6 | %607
 z2 z2 (3(=A,,B,,D, | F,2) z2 (3(=A,,B,,D, | F,6- | F,6 |!ped! .[B,,,B,,]2) z2 z2!ped-up! | %612
[K:treble] [B,CEGB]6- | [B,CEGB]3 [B,CEGB] [B,CEGB]2 | [B,CEGB]3 [B,CEGB] [B,CEGB]2 | %615
 .[B,DFB]2 z2[K:bass] (3(=A,,B,,D, | F,2) z2 (3(=A,,B,,D, | F,6- | F,6 | %619
!ped! .[C,,,C,,]2) z2 z2!ped-up! |[K:treble] [CFAc]6- | [CFAc]6 | [C=EBc]3 [CEBc] [CEBc]2 | %623
 .[FAc]2 z2 z2 |[K:bass]!ped! !>![F,CF]4 z2!ped-up! | !>![F,,C,F,]4 z2 | !>![=E,,,=E,,]6- | %627
 [E,,,E,,]6 | (F,,,6 |!ped!{=D,,,_E,,,} !trill(!TE,,,6-!ped-up! | E,,,6{=D,,,E,,,} | %631
!ped! .[_D,,,_D,,]2) z2 ([A,,A,]2!ped-up! | [F,D]2) z2 ([A,,A,]2 | [F,D]2) z2 z2 | z6 | %635
!ped! .[A,,,A,,]2!ped-up! z2 z2 |!>(!!ped! ([=G,C_G]2 [A,CG]2!p! [A,CG]2)!ped-up!!>)! | %637
!ped! z6!ped-up! |!ped!!>(! ([__B,CG]2 [A,CG]2 [A,CG]2)!ped-up!!>)! | %639
!ped! .[D,,,D,,]2 z2 ([A,,A,]2!ped-up! | [F,D]2) z2 ([A,,A,]2 | [F,D]2) z2 z2 | z6 | ([A,,E,G,]6 | %644
[K:treble] !>!CDEFGA | __B) z z2 z2 |[K:bass]!>(! !>!__B,A,=G,_G,F,!pp!E,!>)! | %647
"^con anima"!ped! D, x!ped-up! x4 | D, x x4 |!ped! G, x x4!ped-up! |!ped! D, x x4!ped-up! | %651
!ped! A, x x4!ped-up! |!ped! D, x x4!ped-up! |!ped! G, x x4!ped-up! |!ped! _F, x x4!ped-up! | %655
!ped! E, x x4!ped-up! |!ped! =G, x x4!ped-up! |!ped! A, x x4!ped-up! |!ped! E, x x4!ped-up! | %659
!ped! B, x x4!ped-up! |!ped! E, x x4!ped-up! |!ped! A, x x4!ped-up! |!ped! =G,6!ped-up! | %663
!ped! _G,6!ped-up! |"^dolce" G,6 |!ped! F,6!ped-up! | F, x x4 |!ped! E, x x4!ped-up! | %668
!ped! E, x x4!ped-up! |!ped! =D, x x4!ped-up! |!ped! =D, x x4!ped-up! |!ped! E, x x4!ped-up! | %672
!ped! G,, x x4!ped-up! |!ped! A,, x x4!ped-up! |!ped! A,, x x4!ped-up! |!ped! A,, x x4!ped-up! | %676
!ped! A,, x x4!ped-up! |!ped! D, x x4!ped-up! |!ped! A, x x4!ped-up! |!ped! G,6!ped-up! | G,6 | %681
!ped! F,6!ped-up! | F, x x4 |!ped! E, x x4!ped-up! |!ped! E, x x4!ped-up! |!ped! =D, x x4!ped-up! | %686
!ped! =D, x x4!ped-up! |!ped! E, x x4!ped-up! |!ped! G,, x x4!ped-up! |!ped! A,, x x4!ped-up! | %690
!ped! A,, x x4!ped-up! |!ped! A,, x x4!ped-up! |!ped! A,, x x4!ped-up! | A,, x x4 | %694
!ped! A,, x x4!ped-up! |!ped! A,, x x4!ped-up! |!ped! A,, x x4!ped-up! | A,, x x4 | %698
!ped! A,, x x4!ped-up! |!ped! A,, x x4!ped-up! |!ped! A,, x x4!ped-up! |!ped! A,, x x4!ped-up! | %702
!ped! A,, x x4!ped-up! |!ped! A,, x x4!ped-up! |!ped! A,, x x4!ped-up! |!ped! A,, x x4!ped-up! | %706
!ped! A,, x x4!ped-up! |!ped! .D,,2 z2 (A,,F,!ped-up! | D2) z2 z2 |!ped! .A,,,2 z2 (A,,E,!ped-up! | %710
 C2) z2 z2 |!ped! .D,,2 z2 (A,,F,!ped-up! | D2) z2 z2 |!ped! .A,,,2 z2 (A,,E,!ped-up! | %714
 C2) z2 z2 ||[K:A]!ped! .[A,,,A,,]2 ([=D,,=D,]2 [E,,E,]2!ped-up! |!ped! [E,,E,]6)!ped-up! | %717
!ped! z2 (^D,,2 E,,2!ped-up! |!ped! [A,,,=F,,]4 [A,,,E,,]2)!ped-up! | %719
!ped! .[A,,,A,,]2 ([=D,,=D,]2 [E,,E,]2!ped-up! |!ped! [E,,E,]6)!ped-up! | %721
!ped! z2 (^D,,2 E,,2!ped-up! |!ped! [A,,,=F,,]4 [A,,,E,,]2)!ped-up! || %723
[K:Db]!ped! [=A,,,F,,]2 z2 ([A,,,=A,,]2!ped-up! | [F,,F,]2) z2 ([=A,,,=A,,]2 | %725
 [F,,F,]2)!ped-up!!ped! z2 ([B,,,B,,]2 | [F,,F,]2)!ped-up!!ped! z2 ([B,,,B,,]2 | %727
 [F,,F,]2)!ped-up!!ped! z2 ([B,,,B,,]2 | [G,,G,]2)!ped-up!!ped! z2 ([B,,,B,,]2 | %729
 [G,,G,]2)!ped-up!!ped! z2 ([__B,,,__B,,]2 | [__B,,__B,]2)!ped-up!!ped! z2 .[A,,,A,,]2 | %731
 [F,A,DF]2 z2 (3(C,D,F, | A,2) z2 (3(=B,,C,F, | A,2) z2 (3(=A,,B,,F, | _A,2) z2 z2 | %735
!ped! .[A,,,A,,]2!ped-up! z2 z2 |[K:treble] [Gcf]6- | [Gcf]2 [Gce]2 [Gcf]2 | [Gce]2 [Gcf]2 [Gce]2 | %739
 .[FAdf]2 z2[K:bass] (3(C,D,F, | A,2) z2 (3(=B,,C,F, | A,2) z2 (3(=A,,B,,F, | _A,2) z2 z2 | %743
!ped! .[A,,,A,,]2!ped-up! z2 z2 |[K:treble] [Gcf]6- | [Gcf]2 [Gce]2 [Gcf]2 | [Gce]2 [Gcf]2 [Gce]2 | %747
 f4 e2 | f4 e2 | f4 e2 | _g4 _f2 | _g4 _f2 | =g4 =f2 | =g4 f2 | a4 _g2 | %755
[K:bass] .[D,,D,]2"^marcato" =G,,2 A,,2 | A,,2 [_G,,_G,]2 [F,,F,]2 | [F,,F,]2 (=G,,2 A,,2 | %758
 __B,,4 A,,2) | .[D,,D,]2 =G,,2 A,,2 | A,,2 [_G,,_G,]2 [F,,F,]2 | [F,,F,]2 (=G,,2 A,,2 | %762
 __B,,4 A,,2) | [D,,D,]2 =G,,2 A,,2 | z2 ([_G,,_G,]2 [F,,F,]2) | [D,,D,]2 =G,,2 A,,2 | %766
 z2 ([_G,,_G,]2 [F,,F,]2) | [D,,D,]2 =G,,2 A,,2 | z2 ([_G,,_G,]2 [F,,F,]2) | %769
 .[D,,__B,,]2 .[D,,A,,]2 .[D,,B,,]2 | .[D,,A,,]2 .[D,,__B,,]2 .[D,,A,,]2 | %771
!ped! [C,,=A,,]2!ped-up! z2 z2 |!ped! !>![C,,=G,,C,]2 z2 z2!ped-up! | %773
!ped! !>![F,,C,F,]2 z2 z2!ped-up! |!ped! !>![_A,,E,_A,]2 z2 z2!ped-up! |!ped! !>![D,A,D]6!ped-up! | %776
 z6 | !>![D,,A,,D,]6 | z6 |{/[D,A,F]} [D,,,D,,]6 |] %780
V:3
 x6 | x6 | x6 | x6 | x6 |!8va(! x6 | x6 | x6 | x2!8va)! x4 | x6 | x6 | x6 | x6 |!8va(! x6 | x6 | %15
 x6 | x2!8va)! x4 | x6 | x6 | x6 | x6 | x6 | x6 | x6 | x6 | x6 | x6 | x6 | x6 |!8va(! x6 | x6 | %31
 x6 | x2!8va)! x4 | x6 | x6 | x6 |[K:bass] x6 |[K:treble]!8va(! x6 | x6 | x6 | x2!8va)! x4 | x6 | %42
 x6 | x6 | x6 | x6 | x6 | x6 |!8va(! x6 | x6!8va)! | x6 | x6 | x6 | x6 | x6 | x6 |!8va(! x6 | %57
 x6!8va)! | x6 | x6 | x6 | x6 | x6 | x6 | _c6- | c6 | _c6 | B6 | !>!_c6- | c6 | [Bd]6 | [Ad]6 | %72
 d6- | d6 | d6 | c6 | !>!d6- | d6 | c6- | c6 | x6 | x6 | x6 | x6 | x6 | x6 | x6 | x6 | x6 | x6 | %90
 x6 | x6 | x6 | x/x/x x4 | x6 | x6 | A4 !>!c2 | x6 | x6 | x6 | !stemless!a6- | x6 | x6 | x6 | x6 | %105
 x6 | x6 | x6 | x6 | x6 | x6 | x6 | x6 |!8va(! x6 | x3!8va)! x3 | x6 | x6 | x3!8va(! x3 | %118
 x2!8va)! x4 | x3!8va(! x3 | x2!8va)! x4 | x3!8va(! x3 | x2!8va)! x4 | x3!8va(! x3 | x2!8va)! x4 | %125
 x3!8va(! x3!8va)! | x6 | x6 | x6 |!8va(! x6!8va)! | x6 | x6 | x6 | x6 | x6 | x6 | x6 |!8va(! x6 | %138
 x6 | x6 | x2!8va)! x4 | x6 | x6 | x6 | x6 |!8va(! x6 | x6 | x6 | x2!8va)! x4 | x6 | x6 | x6 | x6 | %153
 x6 | x6 | x6 | x6 | x6 | x6 | x6 | x6 |!8va(! x6 | x6 | x6 | x2!8va)! x4 | x6 | x6 | x6 | %168
[K:bass] x6 |[K:treble]!8va(! x6 | x6 | x6 | x2!8va)! x4 | x6 | x6 | x6 | x6 | x6 | x6 | x6 | %180
!8va(! x6 | x6!8va)! | x6 | x6 | x6 | x6 | x6 | x6 |!8va(! x6 | x6!8va)! | x6 | x6 | x6 | x6 | x6 | %195
 x6 | _c6- | c6 | _c6 | B6 | !>!_c6- | c6 | [Bd]6 | [Ad]6 | d6- | d6 | d6 | c6 | !>!d6- | d6 | %210
 c6- | c6 | x6 | x6 | x6 | x6 | x6 | x6 | x6 | x6 | x6 | x6 | x6 | x6 | x6 | x/x/x x4 | x6 | x6 | %228
 A4 !>!c2 | x6 | x6 | x6 | [ga]4 !stemless![ga]2 | x6 | x6 | x6 | x6 | x6 | x6 | x6 | x6 | x6 | %242
 x6 | x6 | x6 |!8va(! x6 | x3!8va)! x3 | x6 | x6 | x3!8va(! x3 | x2!8va)! x4 | x3!8va(! x3 | %252
 x2!8va)! x4 | x3!8va(! x3 | x2!8va)! x4 | x3!8va(! x3 | x2!8va)! x4 | x3!8va(! x3!8va)! | x6 | %259
 x6 | x6 |!8va(! x6!8va)! | x6 | x6 ||[K:A][K:bass] x6 | x6 | [F,F]6- | [F,F]6 | x6 | x6 | %270
 [F,F]6- | [F,F]6 | [G,E]6- | [G,E]6 | x6 | x6 |[K:treble] x4- xx/x/ | x3 x x2 | x4 x x/x/ | %279
 x3 x x2 | x6 | x6 | x2!8va(! x4 | x!8va)! x5 |[K:bass] E6 | [F,F]6- | [F,F]6- | [F,F]6 | [E,E]6 | %289
 [F,F]6- | [F,F]6- | [F,-F]6 |[I:staff +1] F,6 |[I:staff -1] [G,E]6- | [G,E]6 | x6 | x6 | x6 | %298
[K:treble] x6 | x6 | x6 |.x/.x/x- x3 x/x/ | x3 x x2 | x4 x x/x/ | x3 x x2 | x6 | x6 | x6 | x6 | %309
 z2 (^^FG (3BAG | !>!G6-) | G2 (^^FG (3BAG | !>!G6-) | G2 (^^FG (3BAG | !>!G6) | c2 (^Bc (3e=dc | %316
 c6-) | c2 ^Bc (3edc | c6 | c2 (^Bc (3edc | !>!c6-) | c2 (^Bc (3edc | !>!c6-) | c2 (^Bc (3edc | %324
 !>!c6) | z2 (^^FG (3=BAG | !>!G6-) | G2 (^^FG (3=BAG | !>!G6) | G2 (^^FG (3=BAG | (!>!G6) | %331
 !>!A2) (^AB (3^dcB | !>!B6) | x6 | x6 | x6 | x6 | x6 | x6 | x6 | x6 | x6 | x6 | x6 | x6 | x6 | %346
 x6 | x6 | x6 | x6 | x6 | x6 | x6 | x6 | x6 | x6 | x6 | x6 | x6 | x6 | x6 | x6 | x6 | x6 | x6 | %365
[K:bass] x6 | x6 | [F,F]6- | [F,F]6 | x6 | x6 | [F,F]6- | [F,-F]6 | C4 D2 | [G,E]6- | [G,E]6 | x6 | %377
 x6 |[K:treble] x4- xx/x/ | x3 x x2 | x4 x x/x/ | x3 x x2 | x6 | x6 | x2!8va(! x4 | x!8va)! x5 | %386
[K:bass] E6 | [F,F]6- | [F,F]6- | [F,F]6 | [E,E]6 | [F,F]6- | [F,F]6- | [F,-F]6 | %394
[K:treble][I:staff +1] F,6 |[I:staff -1] [G,E]6- | [G,E]6 | x6 | x6 | x6 | x6 | x6 | x6 | %403
.x/.x/x- x3 x/x/ | x3 x x2 | x4 x x/x/ | x3 x x2 | x6 | x6 | x6 | x6 | z2 (^^FG (3BAG | !>!G6-) | %413
 G2 (^^FG (3BAG | !>!G6-) | G2 (^^FG (3BAG | !>!G6) | c2 (^Bc (3e=dc | c6-) | c2 ^Bc (3edc | c6 | %421
 c2 (^Bc (3edc | !>!c6-) | c2 (^Bc (3edc | !>!c6-) | c2 (^Bc (3edc | !>!c6) | z2 (^^FG (3=BAG | %428
 !>!G6-) | G2 (^^FG (3=BAG | !>!G6) | G2 (^^FG (3=BAG | (!>!G6) | !>!A2) (^AB (3^dcB | !>!B6) | %435
 x6 | x6 | x6 | x6 | x6 | x6 | x6 | x6 | x6 | x6 | x6 | x6 | x6 | x6 | x6 | x6 | x6 | x6 | x6 | %454
 x6 | x6 | x6 | x6 | x6 | x6 | x6 | x6 | x6 | x6 | x6 | x6 | x6 | x6 | x6 | x6 | x6 | x6 | x6 | %473
 x6 | x6 | x6 | x6 | x6 | x6 | x6 | x6 | x6 | x6 | x6 | x2!8va(! x4 | x6!8va)! | x6 | x6 | %488
 x2!8va(! x4 | x6!8va)! | x6 | !>!D2 (^cd (3=f_ed | !>!d6-) | d2 (^cd (3=f_ed | !>!d6-) | %495
 d2 (^cd (3=f_ed | !>!d6-) | d2 (F=G (3_B_AG | !>!=G6-) | G2 (^f=g (3_b_ag | !>!=g6-) | %501
 g2 (^f=g (3_b_ag | !>!=g6-) | g2 (^F=G (3_B_AG | !>!=G6-) | G2 (D_E (3=G=FE | !>!_E6-) | %507
 E2 (=d_e (3_g_fe | !>!_e6-) | e2 (=d_e (3_g_fe | !>!_e6-) | e2 (d_e (3_g_fe | !>!_e6-) | %513
 e2 (=d_e (3_g_fe | !>!_e6) | _f2 x2 x3/2 x/ | x2 x4 | x6 | x6 | x6 | x6 | x6 | x4 x3/2 x/ | x6 | %524
 x6 | x6 | x6 | x6 | x6 | x6 | x6 | x6 | x6 | x6 ||[K:Db][K:treble] x6 |!8va(! x6 | x6 | x6 | x6 | %539
 x6 | x2!8va)! x4 | x6 |[K:bass] x6 |[K:treble] x6 | x6 | x6 | x6 | x6 | x6 | x6 | (!>!G6 | %551
 !>!F2) x4 | x6 | x6 | x6 | x6 | x6 | x6 | x6 | x6 | x6 | x6 | x6 | x6 | x6 | x6 | x6 | x6 | x6 | %569
 x6 | x6 | x2[K:bass] x4 | x6 | x6 | x6 | x6 | x6 | x6 | x6 | x6 | x6 | x6 | x6 | x4[K:treble] x2 | %584
 x6 | x6 | x6 | x6 |!8va(! x6 | x6 | x6 | x2!8va)! x4 | x6 | x6 | x6 | x6 |!8va(! x6 | x6 | x6 | %599
 x2!8va)! x4 | x6 | x6 | x6 | x6 | x6 | x6 | x6 | x6 | x6 | x6 | x6 | x6 |!8va(! x6 | x6 | x6 | %615
 x2!8va)! x4 | x6 | x6 | x6 |[K:bass] x6 |[K:treble]!8va(! x6 | x6 | x6 | x2!8va)! x4 | x6 | x6 | %626
 x6 | x6 | x6 | x6 | x6 |!8va(! x6 | x6!8va)! | x6 | x6 | x6 | x6 | x6 | x6 |!8va(! x6 | x6!8va)! | %641
 x6 | x6 | x6 | x6 | x6 | x6 | _c6- | c6 | _c6 | B6 | !>!_c6- | c6 | [Bd]6 | [Ad]6 | d6- | d6 | %657
 d6 | c6 | !>!d6- | d6 | c6- | c6 | x6 | x6 | x6 | x6 | x6 | x6 | x6 | x6 | x6 | x6 | x6 | x6 | %675
 x6 | x/x/x x4 | x6 | x6 | A4 !>!c2 | x6 | x6 | x6 | [ga]4 !stemless![ga]2 | x6 | x6 | x6 | x6 | %688
 x6 | x6 | x6 | x6 | x6 | x6 | x6 | x6 | x6 | x6 | x6 | x6 | x6 | x6 | x6 | x6 | x6 | x6 | x6 | %707
 x6 | x3!8va(! x3 | x2!8va)! x4 | x3!8va(! x3 | x2!8va)! x4 | x3!8va(! x3 | x2!8va)! x4 | %714
 x4!8va(! x3/2 x/ ||[K:A] x2 x4!8va)! | x6 |[K:bass] x6 | x4 x3/2!ff!!8va(! x/!8va)! | %719
[K:treble]!8va(! x2 x4!8va)! | x6 |[K:bass] x6 | x6 ||[K:Db] x2[K:treble] x4 | x6 | x6 | x6 | x6 | %728
 x6 | x6 | x6 | x6 | x6 | x6 | x6 | x6 |!8va(! x6 | x6 | x6 | x2!8va)! x4 | x6 | x6 | x6 | x6 | %744
!8va(! x6 | x6 | x6 | f'4 e'2 | f'4 e'2 | f'4 e'2 | _g'4 _f'2 | _g'4 _f'2 | =g'4 =f'2 | =g'4 f'2 | %754
 a'4 _g'2 | x6!8va)! | x6 | x6 | F6 |!8va(! x6!8va)! | x6 | x6 | F6 | x6 | F6 | x6 | F6 | x6 | F6 | %769
 x6 | x6 | x6 | x6 | x6 | x6 | x6 | x6 | x6 | x4 x!fff!!8va(! x | !>!!fermata!x6!8va)! |] %780
V:4
 x6 | x6 | x6 | x6 | x6 |[K:treble] x6 | x6 | x6 | x4[K:bass] x2 | x6 | x6 | x6 | x6 | %13
[K:treble] x6 | x6 | x6 | x6 |[K:bass] x6 | x6 | x6 | x6 | x6 | x6 | x6 | x6 | x6 | x6 | x6 | x6 | %29
[K:treble] x6 | x6 | x6 | x4[K:bass] x2 | x6 | x6 | x6 | x6 |[K:treble] x6 | x6 | x6 | x6 | %41
[K:bass] x6 | x6 | x6 | x6 | x6 | x6 | x6 | x6 | x6 | x6 | x6 | x6 | x6 | x6 | x6 | x6 | x6 | x6 | %59
 x6 | x6 |[K:treble] x6 | x6 |[K:bass] x6 | D,A,DFDA, | D,_CDFDC | G,_CDGDC | D,B,DGDB, | %68
 A,_CDADC | D,_CDFDC | G,B,DGDB, | _F,B,DADB, | E,B,D=GDB, | =G,DEBED | A,DEAED | E,CEAEC | %76
 B,DEBED | E,DE=GED | A,CEAEC |xA,CECA, |xA,CECA, |xA,CECA, |xA,DFDA, | F,A,DADA, | E,A,CGCA, | %85
 E,A,CGCA, | =D,A,_CFCA, | =D,A,B,FB,A, | E,G,B,EB,G, | G,,G,B,EB,G, | A,,F,A,DA,F, | %91
 A,,F,A,DA,F, | A,,G,A,CA,G, | A,,G,A,CA,G, | D,A,DFDB, | A,DFAFD |xA,CECA, |xA,CECA, |xA,DFDA, | %99
 F,A,DADA, | E,A,CGCA, | E,A,CGCA, | =D,A,_CFCA, | =D,A,B,FB,A, | E,G,B,EB,G, | G,,G,B,EB,G, | %106
 A,,F,A,DA,F, | A,,F,A,DA,F, | A,,F,A,=DA,F, | A,,F,A,=DA,F, | A,,F,A,=DA,F, | A,,F,A,=DA,F, | %112
 A,,E,G,EG,E, | A,,E,G,EG,E, | A,,E,G,CG,E, | A,,E,G,CG,E, | x6 | x6 | x6 | x6 | x6 | x6 | x6 | %123
 x6 | x6 | x6 | x6 | x6 | x6 |[K:treble] x6 | x6 | x6 | x4[K:bass] x2 | x6 | x6 | x6 | x6 | %137
[K:treble] x6 | x6 | x6 | x4[K:bass] x2 | x6 | x6 | x6 | x6 |[K:treble] x6 | x6 | x6 | x6 | %149
[K:bass] x6 | x6 | x6 | x6 | x6 | x6 | x6 | x6 | x6 | x6 | x6 | x6 |[K:treble] x6 | x6 | x6 | %164
 x4[K:bass] x2 | x6 | x6 | x6 | x6 |[K:treble] x6 | x6 | x6 | x6 |[K:bass] x6 | x6 | x6 | x6 | %177
 x4 xx | (9:6:9xxx xxx xxx | (9:6:9xxx xxx !trill)!xxx | x6 | x6 | x6 | x6 | x6 | x6 | x6 | x6 | %188
 x6 | x6 | x6 | x6 | x6 |[K:treble] x6 | x6 |[K:bass] x6 | D,A,DFDA, | D,_CDFDC | G,_CDGDC | %199
 D,B,DGDB, | A,_CDADC | D,_CDFDC | G,B,DGDB, | _F,B,DADB, | E,B,D=GDB, | =G,DEBED | A,DEAED | %207
 E,CEAEC | B,DEBED | E,DE=GED | A,CEAEC |xA,CECA, |xA,CECA, |xA,CECA, |xA,DFDA, | F,A,DADA, | %216
 E,A,CGCA, | E,A,CGCA, | =D,A,_CFCA, | =D,A,B,FB,A, | E,G,B,EB,G, | G,,G,B,EB,G, | A,,F,A,DA,F, | %223
 A,,F,A,DA,F, | A,,G,A,CA,G, | A,,G,A,CA,G, | D,A,DFDB, | A,DFAFD |xA,CECA, |xA,CECA, |xA,DFDA, | %231
 F,A,DADA, | E,A,CGCA, | E,A,CGCA, | =D,A,_CFCA, | =D,A,B,FB,A, | E,G,B,EB,G, | G,,G,B,EB,G, | %238
 A,,F,A,DA,F, | A,,F,A,DA,F, | A,,F,A,=DA,F, | A,,F,A,=DA,F, | A,,F,A,=DA,F, | A,,F,A,=DA,F, | %244
 A,,E,G,EG,E, | A,,E,G,EG,E, | A,,E,G,CG,E, | A,,E,G,CG,E, | x6 | x6 | x6 | x6 | x6 | x6 | x6 | %255
 x6 | x6 | x6 | x6 | x6 | x6 |[K:treble] x6 | x6 | x6 ||[K:A][K:bass] x6 | x6 | x6 | x6 | x6 | x6 | %270
 x6 | x6 | E,,6- | E,,4 A,,2- | A,,6- | A,,6 | x6 | x6 | x6 | x4 x x/x/ | x6 | x6 | x6 | x6 | x6 | %285
 x6 | x6 | x6 | x6 | x6 | x6 | x6 | x6 | E,,6- | E,,4 A,,2- | A,,6- | A,,6 | x6 | x6 | x6 | x6 | %301
 x4[K:treble] x2 | x6 | x6 | x4 x x/x/ | x6 |[K:bass] x6 | x6 | x2 x2 x2 | C,6 | [^D,F,]6 | E,6 | %312
 ^B,,6 | C,6 | [^D,F,]6 | E,6 | ^E,6 | F,6 | [G,B,]6 | A,6 | ^E,6 | F,6 | [G,B,]6 | A,6 | x6 | %325
 G,,2 ^B,2 F,2 | E,2 C2 G,2 | G,,2 ^B,2 G,2 | G,2 C2 G,2 | G,,2 ^B,2 G,2- | G,2 C2 G,2 | =B,,6- | %332
 B,,6 | E,6 | ^D,6 | x6 | x6 | x6 | x6 | x2 z2!<(! F,2 | G,2 F,2!<)! G,2 | E,6 | ^D,6 | x6 | x6 | %345
 x6 | x6 | x2 z2!<(! (F,2 | G,2 F,2!<)! G,2 | E,6) | x6 | x6 | x6 | E,,6 | x6 | x6 | x6 | x6 | x6 | %359
 x6 | x6 | x6 | x6 | x6 | x6 | x6 | x6 | x6 | x6 | x6 | x6 | x6 | x6 | x6 | E,,6- | E,,4 A,,2- | %376
 A,,6- | A,,6 | x6 | x6 | x6 | x4 x x/x/ | x6 | x6 | x6 | x6 | x6 | x6 | x6 | x6 | x6 | x6 | x6 | %393
 x6 | x6 | E,,6- | E,,4 A,,2- | A,,6- | A,,6 | x6 | x6 | x6 | x6 | x4[K:treble] x2 | x6 | x6 | %406
 x4 x x/x/ | x6 |[K:bass] x6 | x6 | x2 x2 x2 | C,6 | [^D,F,]6 | E,6 | ^B,,6 | C,6 | [^D,F,]6 | %417
 E,6 | ^E,6 | F,6 | [G,B,]6 | A,6 | ^E,6 | F,6 | [G,B,]6 | A,6 | x6 | G,,2 ^B,2 F,2 | E,2 C2 G,2 | %429
 G,,2 ^B,2 G,2 | G,2 C2 G,2 | G,,2 ^B,2 G,2- | G,2 C2 G,2 | =B,,6- | B,,6 | E,6 | ^D,6 | x6 | x6 | %439
 x6 | x6 | x2 z2!<(! F,2 | G,2 F,2!<)! G,2 | E,6 | ^D,6 | x6 | x6 | x6 | x6 | x2 z2!<(! (F,2 | %450
 G,2 F,2!<)! G,2 | E,6) | x6 | x6 | x6 | E,,6 | x6 | x6 | x6 | x6 | x6 | x6 | x6 | x6 | x6 | x6 | %466
 x6 | x6 | x6 | x6 | x6 | x6 | x6 | x6 | x6 | x6 | x6 | x6 | x6 | x6 | x6 | x6 | x6 | x6 | x6 | %485
 x6 | x6 | x6 | x6 | x6 | x6 | x6 | x6 | x6 | !>!=C,6 | x6 | x6 | x6 | x6 | x6 | x6 | x6 | %502
 !>!=F,6 | !>!_E,6 | (!>!D,6 | !>!=C,6) | !>!_B,,6 | x6 | x6 | x6 | x6 | x6 | x6 | x6 | x6 | x6 | %516
 x6 | x6 | x6 | x6 | x6 | x6 | x6 | x6 | x6 | x6 | x6 | x6 |[K:treble] x6 | x6 |[K:bass] x6 | x6 | %532
[K:treble] x6 | x6 ||[K:Db][K:bass] x6 | x4[K:treble] x2 | x6 | x6 | x6 | x6 | x6 |[K:bass] x6 | %542
 x6 | x6 | x6 | x6 | x6 | x6 | x6 | x6 | x6 | x6 | x6 | x6 | x6 | x6 | x6 | x6 | x6 | x6 | x6 | %561
 x6 | x6 | x6 | x6 | x6 | x6 | x6 | x6 | x6 | x6 | x6 | x6 | x6 | x6 | x6 | x6 | x6 | x6 | x6 | %580
 x6 | x6 | x6 | x6 | x6 | x6 | x6 | x6 |[K:treble] x6 | x6 | x6 | x4[K:bass] x2 | x6 | x6 | x6 | %595
 x6 |[K:treble] x6 | x6 | x6 | x6 |[K:bass] x6 | x6 | x6 | x6 | x6 | x6 | x6 | x6 | x6 | x6 | x6 | %611
 x6 |[K:treble] x6 | x6 | x6 | x4[K:bass] x2 | x6 | x6 | x6 | x6 |[K:treble] x6 | x6 | x6 | x6 | %624
[K:bass] x6 | x6 | x6 | x6 | x4 xx | (9:6:9xxx xxx xxx | (9:6:9xxx xxx !trill)!xxx | x6 | x6 | x6 | %634
 x6 | x6 | x6 | x6 | x6 | x6 | x6 | x6 | x6 | x6 |[K:treble] x6 | x6 |[K:bass] x6 | D,A,DFDA, | %648
 D,_CDFDC | G,_CDGDC | D,B,DGDB, | A,_CDADC | D,_CDFDC | G,B,DGDB, | _F,B,DADB, | E,B,D=GDB, | %656
 =G,DEBED | A,DEAED | E,CEAEC | B,DEBED | E,DE=GED | A,CEAEC |xA,CECA, |xA,CECA, |xA,CECA, | %665
xA,DFDA, | F,A,DADA, | E,A,CGCA, | E,A,CGCA, | =D,A,_CFCA, | =D,A,B,FB,A, | E,G,B,EB,G, | %672
 G,,G,B,EB,G, | A,,F,A,DA,F, | A,,F,A,DA,F, | A,,G,A,CA,G, | A,,G,A,CA,G, | D,A,DFDB, | A,DFAFD | %679
xA,CECA, |xA,CECA, |xA,DFDA, | F,A,DADA, | E,A,CGCA, | E,A,CGCA, | =D,A,_CFCA, | =D,A,B,FB,A, | %687
 E,G,B,EB,G, | G,,G,B,EB,G, | A,,F,A,DA,F, | A,,F,A,DA,F, | A,,F,A,=DA,F, | A,,F,A,=DA,F, | %693
 A,,F,A,=DA,F, | A,,F,A,=DA,F, | A,,E,G,EG,E, | A,,=E,=G,=EG,E, | A,,=E,=G,=EG,E, | %698
 A,,=E,=G,=EG,E, | A,,F,A,FA,F, | A,,_E,_G,CG,E, | A,,_C,F,_CF,C, | A,,F,A,=DA,F, | %703
 A,,_D,=G,_DG,D, | A,,_F,B,_FB,F, | A,,E,_G,EG,E, | A,,E,G,CG,E, | x6 | x6 | x6 | x6 | x6 | x6 | %713
 x6 | x6 ||[K:A] x6 | x6 | x6 | x6 | x6 | x6 | x6 | x6 ||[K:Db] x6 | x6 | x6 | x6 | x6 | x6 | x6 | %730
 x6 | x6 | x6 | x6 | x6 | x6 |[K:treble] x6 | x6 | x6 | x4[K:bass] x2 | x6 | x6 | x6 | x6 | %744
[K:treble] x6 | x6 | x6 | [Gc]6 | [Gc]6 | [Gc]6 | [=Gd]6 | [=Gd]6 | [A=d]6 | [A=d]6 | [Ae]6 | %755
[K:bass] x6 | x6 | x6 | x6 | x6 | x6 | x6 | x6 | x6 | x6 | x6 | x6 | x6 | x6 | x6 | x6 | x6 | x6 | %773
 x6 | x6 | x6 | x6 | x6 | x4 x x | !>!!fermata!x6 |] %780
V:5
 x6 | x6 | x6 | x6 | x6 |!8va(! x6 | x6 | x6 | x2!8va)! x4 | x6 | x6 | x6 | x6 |!8va(! x6 | x6 | %15
 x6 | x2!8va)! x4 | x6 | x6 | x6 | x6 | x6 | x6 | x6 | x6 | x6 | x6 | x6 | x6 |!8va(! x6 | x6 | %31
 x6 | x2!8va)! x4 | x6 | x6 | x6 |[K:bass] x6 |[K:treble]!8va(! x6 | x6 | x6 | x2!8va)! x4 | x6 | %42
 x6 | x6 | x6 | x6 | x6 | x6 |!8va(! x6 | x6!8va)! | x6 | x6 | x6 | x6 | x6 | x6 |!8va(! x6 | %57
 x6!8va)! | x6 | x6 | x6 | x6 | x6 | x6 | x6 | x6 | x6 | x6 | x6 | x6 | x6 | x4 x3/2 x/ | x4 x2 | %73
x2x/x/x- x x | x6 | x6 | x6 | x6 | x6 | x6 | x6 | x6 | x6 | x6 | x6 | x6 | x6 | x6 | x6 | x6 | x6 | %91
 x6 | x6 | x6 | x6 | x6 | x/x/ x x4 | x6 | x6 | x6 | x6 | x6 | x6 | x6 | x6 | x6 | x6 | x6 | x6 | %109
 x6 | x6 | x6 | x6 |!8va(! x6 | x3!8va)! x3 | x6 | x6 | x3!8va(! x3 | x2!8va)! x4 | x3!8va(! x3 | %120
 x2!8va)! x4 | x3!8va(! x3 | x2!8va)! x4 | x3!8va(! x3 | x2!8va)! x4 | x3!8va(! x3!8va)! | x6 | %127
 x6 | x6 |!8va(! x6!8va)! | x6 | x6 | x6 | x6 | x6 | x6 | x6 |!8va(! x6 | x6 | x6 | x2!8va)! x4 | %141
 x6 | x6 | x6 | x6 |!8va(! x6 | x6 | x6 | x2!8va)! x4 | x6 | x6 | x6 | x6 | x6 | x6 | x6 | x6 | %157
 x6 | x6 | x6 | x6 |!8va(! x6 | x6 | x6 | x2!8va)! x4 | x6 | x6 | x6 |[K:bass] x6 | %169
[K:treble]!8va(! x6 | x6 | x6 | x2!8va)! x4 | x6 | x6 | x6 | x6 | x6 | x6 | x6 |!8va(! x6 | %181
 x6!8va)! | x6 | x6 | x6 | x6 | x6 | x6 |!8va(! x6 | x6!8va)! | x6 | x6 | x6 | x6 | x6 | x6 | x6 | %197
 x6 | x6 | x6 | x6 | x6 | x6 | x4 x3/2 x/ | x4 x2 |x2x/x/x- x x | x6 | x6 | x6 | x6 | x6 | x6 | %212
 x6 | x6 | x6 | x6 | x6 | x6 | x6 | x6 | x6 | x6 | x6 | x6 | x6 | x6 | x6 | x6 |x<x- x4 | x6 | x6 | %231
 x6 | x6 | x6 | x6 | x6 | x6 | x6 | x6 | x6 | x6 | x6 | x6 | x6 | x6 |!8va(! x6 | x3!8va)! x3 | %247
 x6 | x6 | x3!8va(! x3 | x2!8va)! x4 | x3!8va(! x3 | x2!8va)! x4 | x3!8va(! x3 | x2!8va)! x4 | %255
 x3!8va(! x3 | x2!8va)! x4 | x3!8va(! x3!8va)! | x6 | x6 | x6 |!8va(! x6!8va)! | x6 | x6 || %264
[K:A][K:bass] x6 | x6 | x6 | x6 | x6 | x6 | x6 | x6 | x6 | x6 | x6 | x6 |[K:treble] x6 | x6 | x6 | %279
 x6 | x6 | x6 | x2!8va(! x4 | x!8va)! x5 |[K:bass] x6 | x6 | x6 | x6 | x6 | x6 | x6 | x4 x3/2 x/ | %292
 x2 x4 | x6 | x6 | x6 | x6 | x6 |[K:treble] x6 | x6 | x6 | x6 | x6 | x6 | x6 | x6 | x6 | x6 | x6 | %309
 x6 | x6 | x6 | x6 | x6 | x6 | x6 | x6 | x6 | x6 | x6 | x6 | x6 | x6 | x6 | x6 | x6 | x6 | x6 | %328
 x6 | x6 | x6 | x6 | x6 | x6 | x6 | x6 | x6 | x6 | x6 | x6 | x6 | x6 | x6 | x6 | x6 | x6 | x6 | %347
 x6 | x6 | x6 | x6 | x6 | x6 | x6 | x6 | x6 | x6 | x6 | x6 | x6 | x6 | x6 | x6 | x6 | x6 | %365
[K:bass] x6 | x6 | x6 | x6 | x6 | x6 | x6 | x4 x3/2 x/ | x2 x4 | x6 | x6 | x6 | x6 |[K:treble] x6 | %379
 x6 | x6 | x6 | x6 | x6 | x2!8va(! x4 | x!8va)! x5 |[K:bass] x6 | x6 | x6 | x6 | x6 | x6 | x6 | %393
 x4 x3/2 x/ |[K:treble] x x x4 | x6 | x6 | x6 | x6 | x6 | x6 | x6 | x6 | x6 | x6 | x6 | x6 | x6 | %408
 x6 | x6 | x6 | x6 | x6 | x6 | x6 | x6 | x6 | x6 | x6 | x6 | x6 | x6 | x6 | x6 | x6 | x6 | x6 | %427
 x6 | x6 | x6 | x6 | x6 | x6 | x6 | x6 | x6 | x6 | x6 | x6 | x6 | x6 | x6 | x6 | x6 | x6 | x6 | %446
 x6 | x6 | x6 | x6 | x6 | x6 | x6 | x6 | x6 | x6 | x6 | x6 | x6 | x6 | x6 | x6 | x6 | x6 | x6 | %465
 x6 | x6 | x6 | x6 | x6 | x6 | x6 | x6 | x6 | x6 | x6 | x6 | x6 | x6 | x6 | x6 | x6 | x6 | x6 | %484
 x2!8va(! x4 | x6!8va)! | x6 | x6 | x2!8va(! x4 | x6!8va)! | x6 | x6 | z2 ^f4 | =g2 x2 z2 | x6 | %495
 x6 | z2 ^f4 | =g2 x2 z2 | z2 d4 | =c2 x2 x2 | z2 =b4 | =c'2 x2 z2 | x6 | x6 | z2 B4 | =c2 x2 z2 | %506
 z2 =G4 | _c2 x2 x2 | z2 _b4 | _a2 x2 x2 | x6 | x6 | z2 _b4 | _a2 x2 x2 | x6 | x6 | x6 | x6 | x6 | %519
 x6 | x6 | x6 | x6 | x6 | x6 | x6 | x6 | x6 | x6 | x6 | x6 | x6 | x6 | x6 ||[K:Db][K:treble] x6 | %535
!8va(! x6 | x6 | x6 | x6 | x6 | x2!8va)! x4 | x6 |[K:bass] x6 |[K:treble] x6 | x6 | x6 | x6 | x6 | %548
 x6 | x6 | x6 | x6 | x6 | x6 | x6 | x6 | x6 | x6 | x6 | x6 | x6 | x6 | x6 | x6 | x6 | x6 | x6 | %567
 x6 | x6 | x6 | x6 | x2[K:bass] x4 | x6 | x6 | x6 | x6 | x6 | x6 | x6 | x6 | x6 | x6 | x6 | %583
 x4[K:treble] x2 | x6 | x6 | x6 | x6 |!8va(! x6 | x6 | x6 | x2!8va)! x4 | x6 | x6 | x6 | x6 | %596
!8va(! x6 | x6 | x6 | x2!8va)! x4 | x6 | x6 | x6 | x6 | x6 | x6 | x6 | x6 | x6 | x6 | x6 | x6 | %612
!8va(! x6 | x6 | x6 | x2!8va)! x4 | x6 | x6 | x6 |[K:bass] x6 |[K:treble]!8va(! x6 | x6 | x6 | %623
 x2!8va)! x4 | x6 | x6 | x6 | x6 | x6 | x6 | x6 |!8va(! x6 | x6!8va)! | x6 | x6 | x6 | x6 | x6 | %638
 x6 |!8va(! x6 | x6!8va)! | x6 | x6 | x6 | x6 | x6 | x6 | x6 | x6 | x6 | x6 | x6 | x6 | x6 | %654
 x4 x3/2 x/ | x4 x2 |x2x/x/x- x x | x6 | x6 | x6 | x6 | x6 | x6 | x6 | x6 | x6 | x6 | x6 | x6 | %669
 x6 | x6 | x6 | x6 | x6 | x6 | x6 | x6 | x6 | x6 |x<x- x4 | x6 | x6 | x6 | x6 | x6 | x6 | x6 | x6 | %688
 x6 | x6 | x6 | x6 | x6 | x6 | x6 | x6 | x6 | x6 | x6 | x6 | x6 | x6 | x6 | x6 | x6 | x6 | x6 | %707
 x6 | x3!8va(! x3 | x2!8va)! x4 | x3!8va(! x3 | x2!8va)! x4 | x3!8va(! x3 | x2!8va)! x4 | %714
 x3!8va(! x3 ||[K:A] x6!8va)! | x6 |[K:bass] x6 | x11/2!8va(! x/!8va)! |[K:treble]!8va(! x6!8va)! | %720
 x6 |[K:bass] x6 | x6 ||[K:Db] x2[K:treble] x4 | x6 | x6 | x6 | x6 | x6 | x6 | x6 | x6 | x6 | x6 | %734
 x6 | x6 |!8va(! x6 | x6 | x6 | x2!8va)! x4 | x6 | x6 | x6 | x6 |!8va(! x6 | x6 | x6 | x6 | x6 | %749
 x6 | x6 | x6 | x6 | x6 | x6 | x6!8va)! | x6 | x6 | x6 |!8va(! x6!8va)! | x6 | x6 | x6 | x6 | x6 | %765
 x6 | x6 | x6 | x6 | x6 | x6 | x6 | x6 | x6 | x6 | x6 | x6 | x6 | x5!8va(! x | x6!8va)! |] %780
V:6
 x6 | x6 | x6 | x6 | x6 |!8va(! x6 | x6 | x6 | x2!8va)! x4 | x6 | x6 | x6 | x6 |!8va(! x6 | x6 | %15
 x6 | x2!8va)! x4 | x6 | x6 | x6 | x6 | x6 | x6 | x6 | x6 | x6 | x6 | x6 | x6 |!8va(! x6 | x6 | %31
 x6 | x2!8va)! x4 | x6 | x6 | x6 |[K:bass] x6 |[K:treble]!8va(! x6 | x6 | x6 | x2!8va)! x4 | x6 | %42
 x6 | x6 | x6 | x6 | x6 | x6 |!8va(! x6 | x6!8va)! | x6 | x6 | x6 | x6 | x6 | x6 |!8va(! x6 | %57
 x6!8va)! | x6 | x6 | x6 | x6 | x6 | x6 | x6 | x6 | x6 | x6 | x6 | x6 | x6 | x6 | x6 | x6 | x6 | %75
 x6 | x6 | x6 | x6 | x6 | x6 | x6 | x6 | x6 | x6 | x6 | x6 | x6 | x6 | x6 | x6 | x6 | x6 | x6 | %94
 x6 | x6 | x6 | x6 | x6 | x6 | x6 | x6 | x6 | x6 | x6 | x6 | x6 | x6 | x6 | x6 | x6 | x6 | x6 | %113
!8va(! x6 | x3!8va)! x3 | x6 | x6 | x3!8va(! x3 | x2!8va)! x4 | x3!8va(! x3 | x2!8va)! x4 | %121
 x3!8va(! x3 | x2!8va)! x4 | x3!8va(! x3 | x2!8va)! x4 | x3!8va(! x3!8va)! | x6 | x6 | x6 | %129
!8va(! x6!8va)! | x6 | x6 | x6 | x6 | x6 | x6 | x6 |!8va(! x6 | x6 | x6 | x2!8va)! x4 | x6 | x6 | %143
 x6 | x6 |!8va(! x6 | x6 | x6 | x2!8va)! x4 | x6 | x6 | x6 | x6 | x6 | x6 | x6 | x6 | x6 | x6 | %159
 x6 | x6 |!8va(! x6 | x6 | x6 | x2!8va)! x4 | x6 | x6 | x6 |[K:bass] x6 |[K:treble]!8va(! x6 | x6 | %171
 x6 | x2!8va)! x4 | x6 | x6 | x6 | x6 | x6 | x6 | x6 |!8va(! x6 | x6!8va)! | x6 | x6 | x6 | x6 | %186
 x6 | x6 |!8va(! x6 | x6!8va)! | x6 | x6 | x6 | x6 | x6 | x6 | x6 | x6 | x6 | x6 | x6 | x6 | x6 | %203
 x6 | x6 | x6 | x6 | x6 | x6 | x6 | x6 | x6 | x6 | x6 | x6 | x6 | x6 | x6 | x6 | x6 | x6 | x6 | %222
 x6 | x6 | x6 | x6 | x6 | x6 | x6 | x6 | x6 | x6 | x6 | x6 | x6 | x6 | x6 | x6 | x6 | x6 | x6 | %241
 x6 | x6 | x6 | x6 |!8va(! x6 | x3!8va)! x3 | x6 | x6 | x3!8va(! x3 | x2!8va)! x4 | x3!8va(! x3 | %252
 x2!8va)! x4 | x3!8va(! x3 | x2!8va)! x4 | x3!8va(! x3 | x2!8va)! x4 | x3!8va(! x3!8va)! | x6 | %259
 x6 | x6 |!8va(! x6!8va)! | x6 | x6 ||[K:A][K:bass] x6 | x6 | x6 | x6 | x6 | x6 | x6 | x6 | x6 | %273
 x6 | x6 | x6 |[K:treble] x6 | x6 | x6 | x6 | x6 | x6 | x2!8va(! x4 | x!8va)! x5 |[K:bass] x6 | %285
 x6 | x6 | x6 | x6 | x6 | x6 | x6 | x6 | x6 | x6 | x6 | x6 | x6 |[K:treble] x6 | x6 | x6 | x6 | %302
 x6 | x6 | x6 | x6 | x6 | x6 | x6 | x6 | x6 | x6 | x6 | x6 | x6 | x6 | x6 | x6 | x6 | x6 | x6 | %321
 x6 | x6 | x6 | x6 | x6 | x6 | x6 | x6 | x6 | x6 | x6 | x6 | x6 | x6 | x6 | x6 | x6 | x6 | x6 | %340
 x6 | x6 | x6 | x6 | x6 | x6 | x6 | x6 | x6 | x6 | x6 | x6 | x6 | x6 | x6 | x6 | x6 | x6 | x6 | %359
 x6 | x6 | x6 | x6 | x6 | x6 |[K:bass] x6 | x6 | x6 | x6 | x6 | x6 | x6 | x6 |[I:staff +1] F,6 | %374
 x6 | x6 | x6 | x6 |[I:staff -1][K:treble] x6 | x6 | x6 | x6 | x6 | x6 | x2!8va(! x4 | x!8va)! x5 | %386
[K:bass] x6 | x6 | x6 | x6 | x6 | x6 | x6 | x6 |[K:treble] C4- CD | x6 | x6 | x6 | x6 | x6 | x6 | %401
 x6 | x6 | x6 | x6 | x6 | x6 | x6 | x6 | x6 | x6 | x6 | x6 | x6 | x6 | x6 | x6 | x6 | x6 | x6 | %420
 x6 | x6 | x6 | x6 | x6 | x6 | x6 | x6 | x6 | x6 | x6 | x6 | x6 | x6 | x6 | x6 | x6 | x6 | x6 | %439
 x6 | x6 | x6 | x6 | x6 | x6 | x6 | x6 | x6 | x6 | x6 | x6 | x6 | x6 | x6 | x6 | x6 | x6 | x6 | %458
 x6 | x6 | x6 | x6 | x6 | x6 | x6 | x6 | x6 | x6 | x6 | x6 | x6 | x6 | x6 | x6 | x6 | x6 | x6 | %477
 x6 | x6 | x6 | x6 | x6 | x6 | x6 | x2!8va(! x4 | x6!8va)! | x6 | x6 | x2!8va(! x4 | x6!8va)! | %490
 x6 | x6 | x6 | x6 | x6 | x6 | x6 | x6 | x6 | x6 | x6 | x6 | x6 | x6 | x6 | x6 | x6 | x6 | x6 | %509
 x6 | x6 | x6 | x6 | x6 | x6 | x6 | x6 | x6 | x6 | x6 | x6 | x6 | x6 | x6 | x6 | x6 | x6 | x6 | %528
 x6 | x6 | x6 | x6 | x6 | x6 ||[K:Db][K:treble] x6 |!8va(! x6 | x6 | x6 | x6 | x6 | x2!8va)! x4 | %541
 x6 |[K:bass] x6 |[K:treble] x6 | x6 | x6 | x6 | x6 | x6 | x6 | x6 | x6 | x6 | x6 | x6 | x6 | x6 | %557
 x6 | x6 | x6 | x6 | x6 | x6 | x6 | x6 | x6 | x6 | x6 | x6 | x6 | x6 | x2[K:bass] x4 | x6 | x6 | %574
 x6 | x6 | x6 | x6 | x6 | x6 | x6 | x6 | x6 | x4[K:treble] x2 | x6 | x6 | x6 | x6 |!8va(! x6 | x6 | %590
 x6 | x2!8va)! x4 | x6 | x6 | x6 | x6 |!8va(! x6 | x6 | x6 | x2!8va)! x4 | x6 | x6 | x6 | x6 | x6 | %605
 x6 | x6 | x6 | x6 | x6 | x6 | x6 |!8va(! x6 | x6 | x6 | x2!8va)! x4 | x6 | x6 | x6 |[K:bass] x6 | %620
[K:treble]!8va(! x6 | x6 | x6 | x2!8va)! x4 | x6 | x6 | x6 | x6 | x6 | x6 | x6 |!8va(! x6 | %632
 x6!8va)! | x6 | x6 | x6 | x6 | x6 | x6 |!8va(! x6 | x6!8va)! | x6 | x6 | x6 | x6 | x6 | x6 | x6 | %648
 x6 | x6 | x6 | x6 | x6 | x6 | x6 | x6 | x6 | x6 | x6 | x6 | x6 | x6 | x6 | x6 | x6 | x6 | x6 | %667
 x6 | x6 | x6 | x6 | x6 | x6 | x6 | x6 | x6 | x6 | x6 | x6 | x6 | x6 | x6 | x6 | x6 | x6 | x6 | %686
 x6 | x6 | x6 | x6 | x6 | x6 | x6 | x6 | x6 | x6 | x6 | x6 | x6 | x6 | x6 | x6 | x6 | x6 | x6 | %705
 x6 | x6 | x6 | x3!8va(! x3 | x2!8va)! x4 | x3!8va(! x3 | x2!8va)! x4 | x3!8va(! x3 | x2!8va)! x4 | %714
 x3!8va(! x3 ||[K:A] x6!8va)! | x6 |[K:bass] x6 | x11/2!8va(! x/!8va)! |[K:treble]!8va(! x6!8va)! | %720
 x6 |[K:bass] x6 | x6 ||[K:Db] x2[K:treble] x4 | x6 | x6 | x6 | x6 | x6 | x6 | x6 | x6 | x6 | x6 | %734
 x6 | x6 |!8va(! x6 | x6 | x6 | x2!8va)! x4 | x6 | x6 | x6 | x6 |!8va(! x6 | x6 | x6 | x6 | x6 | %749
 x6 | x6 | x6 | x6 | x6 | x6 | x6!8va)! | x6 | x6 | x6 |!8va(! x6!8va)! | x6 | x6 | x6 | x6 | x6 | %765
 x6 | x6 | x6 | x6 | x6 | x6 | x6 | x6 | x6 | x6 | x6 | x6 | x6 | x5!8va(! x | x6!8va)! |] %780

